;FLAVOR:Marlin
;TIME:5554
;Filament used: 4.99596m
;Layer height: 0.28
;MINX:27.067
;MINY:21.064
;MINZ:0.28
;MAXX:190.989
;MAXY:198.937
;MAXZ:14.84
;Generated with Cura_SteamEngine 4.2.1
M140 S50
M105
M190 S50
M104 S195
M105
M109 S195
M82 ;absolute extrusion mode
G28 ;Home
G29;Calibrado cama
G1 Z15.0 F6000 ;Move the platform down 15mm
;Prime the extruder
G92 E0
G1 F200 E3
G92 E0
M141 S28
G92 E0
G92 E0
G1 F1800 E-4.5
;LAYER_COUNT:53
;LAYER:0
M107
G0 F3600 X47.217 Y49.252 Z0.28
;TYPE:SKIRT
G1 F1800 E0
G1 F900 X48.473 Y48.027 E0.0817
G1 X48.554 Y47.951 E0.08687
G1 X49.818 Y46.801 E0.16644
G1 X49.903 Y46.726 E0.17172
G1 X51.164 Y45.658 E0.24866
G1 X51.245 Y45.592 E0.25353
G1 X52.453 Y44.635 E0.32529
G1 X52.534 Y44.572 E0.33007
G1 X53.675 Y43.726 E0.39621
G1 X53.748 Y43.674 E0.40038
G1 X54.853 Y42.902 E0.46315
G1 X54.928 Y42.851 E0.46737
G1 X56.184 Y42.025 E0.53737
G1 X56.259 Y41.978 E0.54149
G1 X57.368 Y41.292 E0.60221
G1 X57.442 Y41.247 E0.60625
G1 X58.544 Y40.606 E0.66561
G1 X58.606 Y40.571 E0.66893
G1 X59.526 Y40.063 E0.71786
G1 X59.586 Y40.031 E0.72103
G1 X60.826 Y39.38 E0.78624
G1 X60.898 Y39.343 E0.79001
G1 X62.03 Y38.785 E0.84878
G1 X62.106 Y38.749 E0.85269
G1 X63.382 Y38.161 E0.91811
G1 X63.445 Y38.132 E0.92134
G1 X64.535 Y37.658 E0.97669
G1 X64.589 Y37.635 E0.97942
G1 X65.705 Y37.174 E1.03565
G1 X65.763 Y37.151 E1.03855
G1 X66.88 Y36.715 E1.09439
G1 X66.96 Y36.685 E1.09837
G1 X68.213 Y36.234 E1.16037
G1 X68.254 Y36.22 E1.16239
G1 X69.284 Y35.865 E1.21312
G1 X69.339 Y35.846 E1.21583
G1 X70.994 Y35.309 E1.29685
G1 X71.043 Y35.294 E1.29924
G1 X71.848 Y35.047 E1.33845
G1 X71.898 Y35.032 E1.34088
G1 X73.347 Y34.613 E1.41111
G1 X73.394 Y34.6 E1.41338
G1 X74.465 Y34.308 E1.46507
G1 X74.508 Y34.296 E1.46715
G1 X75.733 Y33.98 E1.52606
G1 X75.772 Y33.971 E1.52792
G1 X76.815 Y33.716 E1.57792
G1 X76.851 Y33.707 E1.57965
G1 X78.014 Y33.437 E1.63524
G1 X78.045 Y33.43 E1.63672
G1 X79.069 Y33.203 E1.68556
G1 X79.101 Y33.196 E1.68709
G1 X80.153 Y32.974 E1.73715
G1 X80.185 Y32.967 E1.73868
G1 X81.343 Y32.735 E1.79367
G1 X81.372 Y32.73 E1.79504
G1 X82.258 Y32.561 E1.83704
G1 X82.283 Y32.556 E1.83823
G1 X83.57 Y32.321 E1.89915
G1 X83.599 Y32.316 E1.90052
G1 X84.407 Y32.176 E1.9387
G1 X84.422 Y32.173 E1.93941
G1 X85.921 Y31.921 E2.01019
G1 X85.946 Y31.917 E2.01137
G1 X86.627 Y31.808 E2.04349
G1 X86.653 Y31.804 E2.04471
G1 X88.531 Y31.519 E2.13316
G1 X88.564 Y31.514 E2.13471
G1 X90.901 Y31.184 E2.24461
G1 X90.932 Y31.18 E2.24607
G1 X93.121 Y30.893 E2.34887
G1 X93.145 Y30.89 E2.35
G1 X95.351 Y30.618 E2.45349
G1 X95.372 Y30.616 E2.45448
G1 X98.21 Y30.285 E2.58752
G1 X98.229 Y30.282 E2.58842
G1 X101.165 Y29.957 E2.72597
G1 X101.179 Y29.956 E2.72662
G1 X106.204 Y29.422 E2.96192
G1 X106.212 Y29.421 E2.9623
G1 X149.592 Y24.917 E4.99311
G1 X185.832 Y21.151 E6.68968
G1 X185.878 Y21.147 E6.69183
G1 X186.529 Y21.089 E6.72227
G1 X186.718 Y21.077 E6.73108
G1 X187.154 Y21.064 E6.7514
G1 X187.573 Y21.079 E6.77092
G1 X188.103 Y21.133 E6.79573
G1 X188.601 Y21.224 E6.8193
G1 X189.078 Y21.392 E6.84285
G1 X189.522 Y21.633 E6.86637
G1 X189.923 Y21.941 E6.88992
G1 X190.27 Y22.309 E6.91347
G1 X190.555 Y22.726 E6.93699
G1 X190.771 Y23.183 E6.96052
G1 X190.913 Y23.669 E6.9841
G1 X190.977 Y24.217 E7.00979
G1 X190.985 Y24.473 E7.02172
G1 X190.987 Y24.571 E7.02628
G1 X190.988 Y26.062 E7.09571
G1 X190.988 Y26.108 E7.09785
G1 X190.979 Y26.768 E7.12859
G1 X190.932 Y27.271 E7.15211
G1 X190.806 Y27.761 E7.17567
G1 X190.605 Y28.225 E7.19921
G1 X190.334 Y28.651 E7.22272
G1 X189.998 Y29.029 E7.24627
G1 X189.581 Y29.368 E7.2713
G1 X188.964 Y29.789 E7.30608
G1 X186.678 Y31.382 E7.43582
G1 X184.482 Y33.007 E7.56303
G1 X182.312 Y34.71 E7.69147
G1 X180.224 Y36.446 E7.81791
G1 X178.16 Y38.263 E7.94596
G1 X176.165 Y40.121 E8.0729
G1 X174.213 Y42.047 E8.20059
G1 X172.327 Y44.016 E8.32755
G1 X170.485 Y46.048 E8.45526
G1 X168.694 Y48.142 E8.58356
G1 X166.985 Y50.26 E8.71029
G1 X165.319 Y52.449 E8.83838
G1 X163.722 Y54.672 E8.96583
G1 X162.195 Y56.93 E9.09276
G1 X160.725 Y59.244 E9.22041
G1 X159.332 Y61.582 E9.34714
G1 X157.977 Y64.006 E9.47645
G1 X156.729 Y66.395 E9.60195
G1 X155.522 Y68.875 E9.73038
G1 X154.392 Y71.375 E9.85813
G1 X153.331 Y73.908 E9.98601
G1 X152.341 Y76.472 E10.11399
G1 X151.436 Y79.038 E10.24069
G1 X150.599 Y81.64 E10.36796
G1 X149.838 Y84.25 E10.49456
G1 X149.143 Y86.919 E10.62298
G1 X148.526 Y89.589 E10.75058
G1 X147.984 Y92.287 E10.87872
G1 X147.528 Y94.952 E11.00462
G1 X147.135 Y97.699 E11.13383
G1 X146.829 Y100.391 E11.25999
G1 X146.596 Y103.105 E11.38683
G1 X146.44 Y105.852 E11.51495
G1 X146.361 Y108.605 E11.64319
G1 X146.359 Y111.323 E11.76976
G1 X146.436 Y114.074 E11.8979
G1 X146.589 Y116.789 E12.02453
G1 X146.821 Y119.533 E12.15275
G1 X147.132 Y122.273 E12.28116
G1 X147.511 Y124.952 E12.40715
G1 X147.974 Y127.655 E12.53484
G1 X148.506 Y130.319 E12.66134
G1 X149.124 Y133.011 E12.78995
G1 X149.819 Y135.682 E12.91846
G1 X150.563 Y138.248 E13.04287
G1 X151.422 Y140.921 E13.1736
G1 X152.323 Y143.478 E13.29984
G1 X153.288 Y145.986 E13.42497
G1 X154.357 Y148.549 E13.55428
G1 X155.496 Y151.074 E13.68327
G1 X156.681 Y153.514 E13.80957
G1 X157.939 Y155.929 E13.93637
G1 X159.298 Y158.366 E14.0663
G1 X160.678 Y160.683 E14.19187
G1 X162.149 Y163.003 E14.31979
G1 X163.666 Y165.252 E14.44611
G1 X165.278 Y167.5 E14.57491
G1 X166.937 Y169.681 E14.70251
G1 X168.666 Y171.827 E14.83084
G1 X170.395 Y173.853 E14.95486
G1 X172.259 Y175.915 E15.08429
G1 X174.159 Y177.902 E15.2123
G1 X176.114 Y179.832 E15.34022
G1 X178.12 Y181.705 E15.46802
G1 X180.162 Y183.506 E15.5948
G1 X182.26 Y185.253 E15.72193
G1 X184.411 Y186.944 E15.84933
G1 X186.608 Y188.572 E15.97666
G1 X189.591 Y190.635 E16.14554
G1 X189.983 Y190.955 E16.1691
G1 X190.32 Y191.332 E16.19265
G1 X190.593 Y191.758 E16.21621
G1 X190.795 Y192.221 E16.23973
G1 X190.922 Y192.71 E16.26326
G1 X190.97 Y193.206 E16.28646
G1 X190.987 Y194.091 E16.32768
G1 X190.988 Y194.148 E16.33033
G1 X190.989 Y194.983 E16.36921
G1 X190.989 Y195.029 E16.37136
G1 X190.98 Y195.709 E16.40302
G1 X190.933 Y196.213 E16.42659
G1 X190.808 Y196.703 E16.45014
G1 X190.607 Y197.167 E16.47369
G1 X190.335 Y197.593 E16.49722
G1 X190 Y197.971 E16.52074
G1 X189.61 Y198.292 E16.54426
G1 X189.173 Y198.548 E16.56784
G1 X188.702 Y198.731 E16.59137
G1 X188.338 Y198.818 E16.6088
G1 X187.943 Y198.888 E16.62748
G1 X187.342 Y198.937 E16.65556
G1 X186.819 Y198.93 E16.67991
G1 X186.626 Y198.921 E16.68891
G1 X186.315 Y198.898 E16.70343
G1 X186.22 Y198.89 E16.70787
G1 X143.167 Y194.417 E18.72339
G1 X103.751 Y190.32 E20.56865
G1 X103.739 Y190.319 E20.56921
G1 X101.27 Y190.053 E20.68484
G1 X101.262 Y190.052 E20.68522
G1 X98.408 Y189.737 E20.81892
G1 X98.391 Y189.735 E20.81972
G1 X95.805 Y189.436 E20.94093
G1 X95.781 Y189.433 E20.94206
G1 X92.595 Y189.04 E21.09154
G1 X92.566 Y189.036 E21.0929
G1 X90.622 Y188.778 E21.18421
G1 X90.592 Y188.774 E21.18562
G1 X88.286 Y188.446 E21.29408
G1 X88.252 Y188.441 E21.29568
G1 X86.744 Y188.21 E21.36672
G1 X86.725 Y188.207 E21.36762
G1 X85.853 Y188.068 E21.40873
G1 X85.827 Y188.064 E21.40996
G1 X84.713 Y187.877 E21.46255
G1 X84.694 Y187.873 E21.46346
G1 X83.862 Y187.728 E21.50278
G1 X83.844 Y187.725 E21.50363
G1 X82.482 Y187.48 E21.56807
G1 X82.455 Y187.475 E21.56935
G1 X81.487 Y187.292 E21.61522
G1 X81.453 Y187.286 E21.61683
G1 X80.244 Y187.044 E21.67424
G1 X80.216 Y187.038 E21.67558
G1 X79.309 Y186.848 E21.71873
G1 X79.279 Y186.842 E21.72015
G1 X78.172 Y186.599 E21.77293
G1 X78.139 Y186.591 E21.77451
G1 X77.029 Y186.335 E21.82755
G1 X76.996 Y186.327 E21.82913
G1 X76.103 Y186.111 E21.87191
G1 X76.063 Y186.101 E21.87383
G1 X74.725 Y185.759 E21.93814
G1 X74.682 Y185.748 E21.94021
G1 X73.598 Y185.455 E21.99249
G1 X73.552 Y185.442 E21.99472
G1 X71.981 Y184.992 E22.07081
G1 X71.929 Y184.977 E22.07333
G1 X71.184 Y184.75 E22.1096
G1 X71.135 Y184.734 E22.112
G1 X69.464 Y184.195 E22.19375
G1 X69.411 Y184.178 E22.19635
G1 X68.56 Y183.887 E22.23822
G1 X68.519 Y183.873 E22.24024
G1 X67.222 Y183.41 E22.30437
G1 X67.149 Y183.383 E22.30799
G1 X65.828 Y182.875 E22.3739
G1 X65.757 Y182.846 E22.37747
G1 X64.613 Y182.374 E22.43509
G1 X64.56 Y182.352 E22.43776
G1 X63.508 Y181.896 E22.49115
G1 X63.443 Y181.867 E22.49447
G1 X62.218 Y181.303 E22.55726
G1 X62.148 Y181.269 E22.56089
G1 X60.979 Y180.696 E22.62151
G1 X60.915 Y180.665 E22.62482
G1 X59.907 Y180.143 E22.67768
G1 X59.841 Y180.107 E22.68118
G1 X58.65 Y179.454 E22.74442
G1 X58.58 Y179.415 E22.74816
G1 X57.47 Y178.77 E22.80793
G1 X57.405 Y178.731 E22.81146
G1 X56.472 Y178.159 E22.86242
G1 X56.399 Y178.113 E22.86644
G1 X55.098 Y177.266 E22.93873
G1 X55.016 Y177.211 E22.94333
G1 X53.799 Y176.364 E23.01237
G1 X53.722 Y176.308 E23.0168
G1 X52.544 Y175.435 E23.08507
G1 X52.467 Y175.377 E23.08956
G1 X51.407 Y174.541 E23.15242
G1 X51.327 Y174.475 E23.15725
G1 X50.02 Y173.374 E23.23683
G1 X49.935 Y173.3 E23.24208
G1 X48.637 Y172.126 E23.32357
G1 X48.556 Y172.05 E23.32874
G1 X47.341 Y170.871 E23.40758
G1 X47.264 Y170.793 E23.41268
G1 X46.052 Y169.534 E23.49406
G1 X45.971 Y169.448 E23.49956
G1 X44.79 Y168.127 E23.58207
G1 X44.72 Y168.046 E23.58705
G1 X43.588 Y166.691 E23.66927
G1 X43.521 Y166.607 E23.67427
G1 X42.458 Y165.244 E23.75476
G1 X42.396 Y165.162 E23.75954
G1 X41.315 Y163.68 E23.84496
G1 X41.25 Y163.588 E23.8502
G1 X40.127 Y161.929 E23.94349
G1 X40.072 Y161.845 E23.94816
G1 X39.216 Y160.491 E24.02275
G1 X39.183 Y160.437 E24.0257
G1 X39.036 Y160.194 E24.03892
G1 X39.016 Y160.161 E24.04072
G1 X38.232 Y158.829 E24.11269
G1 X38.207 Y158.785 E24.11505
G1 X38.051 Y158.51 E24.12977
G1 X38.027 Y158.468 E24.13202
G1 X37.253 Y157.055 E24.20704
G1 X37.231 Y157.014 E24.20921
G1 X37.065 Y156.7 E24.22575
G1 X37.043 Y156.657 E24.228
G1 X36.384 Y155.364 E24.29557
G1 X36.365 Y155.326 E24.29755
G1 X36.115 Y154.819 E24.32387
G1 X36.094 Y154.776 E24.3261
G1 X35.531 Y153.59 E24.38723
G1 X35.514 Y153.554 E24.38909
G1 X35.332 Y153.158 E24.40938
G1 X35.313 Y153.115 E24.41157
G1 X34.754 Y151.85 E24.47597
G1 X34.735 Y151.807 E24.47816
G1 X34.48 Y151.206 E24.50856
G1 X34.466 Y151.172 E24.51027
G1 X33.98 Y149.989 E24.56982
G1 X33.963 Y149.946 E24.57197
G1 X33.693 Y149.261 E24.60626
G1 X33.678 Y149.222 E24.60821
G1 X33.23 Y148.04 E24.66706
G1 X33.216 Y148.004 E24.66886
G1 X32.975 Y147.344 E24.70158
G1 X32.961 Y147.303 E24.7036
G1 X32.5 Y145.986 E24.76857
G1 X32.485 Y145.945 E24.7706
G1 X32.243 Y145.222 E24.80611
G1 X32.231 Y145.185 E24.80792
G1 X31.867 Y144.052 E24.86333
G1 X31.857 Y144.018 E24.86498
G1 X31.605 Y143.203 E24.9047
G1 X31.592 Y143.161 E24.90675
G1 X31.213 Y141.872 E24.96931
G1 X31.203 Y141.836 E24.97105
G1 X30.983 Y141.054 E25.00888
G1 X30.973 Y141.018 E25.01062
G1 X30.651 Y139.82 E25.06838
G1 X30.641 Y139.784 E25.07012
G1 X30.432 Y138.969 E25.1093
G1 X30.421 Y138.923 E25.1115
G1 X30.095 Y137.569 E25.17635
G1 X30.085 Y137.525 E25.17845
G1 X29.653 Y135.612 E25.26977
G1 X29.643 Y135.568 E25.27187
G1 X29.453 Y134.668 E25.31471
G1 X29.441 Y134.607 E25.3176
G1 X29.327 Y134.01 E25.3459
G1 X29.323 Y133.988 E25.34694
G1 X29.004 Y132.252 E25.42913
G1 X29 Y132.231 E25.43013
G1 X28.85 Y131.383 E25.47023
G1 X28.843 Y131.343 E25.47212
G1 X28.734 Y130.677 E25.50354
G1 X28.729 Y130.647 E25.50496
G1 X28.322 Y128.005 E25.62943
G1 X28.314 Y127.949 E25.63207
G1 X28.228 Y127.317 E25.66177
G1 X28.225 Y127.295 E25.6628
G1 X28.028 Y125.766 E25.73458
G1 X28.025 Y125.742 E25.73571
G1 X27.908 Y124.777 E25.78097
G1 X27.905 Y124.746 E25.78242
G1 X27.815 Y123.938 E25.82028
G1 X27.812 Y123.91 E25.82159
G1 X27.634 Y122.171 E25.90299
G1 X27.631 Y122.144 E25.90426
G1 X27.568 Y121.472 E25.93568
G1 X27.565 Y121.443 E25.93704
G1 X27.48 Y120.441 E25.98387
G1 X27.477 Y120.404 E25.9856
G1 X27.342 Y118.553 E26.07201
G1 X27.34 Y118.511 E26.07397
G1 X27.277 Y117.458 E26.12309
G1 X27.275 Y117.427 E26.12454
G1 X27.186 Y115.647 E26.20753
G1 X27.184 Y115.612 E26.20916
G1 X27.141 Y114.512 E26.26042
G1 X27.14 Y114.471 E26.26233
G1 X27.089 Y112.519 E26.35325
G1 X27.088 Y112.47 E26.35553
G1 X27.067 Y110.537 E26.44555
G1 X27.067 Y110.488 E26.44783
G1 X27.074 Y108.889 E26.52229
G1 X27.074 Y108.864 E26.52345
G1 X27.082 Y108.215 E26.55367
G1 X27.083 Y108.187 E26.55498
G1 X27.102 Y107.279 E26.59727
G1 X27.103 Y107.247 E26.59876
G1 X27.157 Y105.494 E26.68042
G1 X27.158 Y105.455 E26.68224
G1 X27.214 Y104.155 E26.74283
G1 X27.216 Y104.111 E26.74488
G1 X27.36 Y101.584 E26.86274
G1 X27.363 Y101.534 E26.86507
G1 X27.422 Y100.723 E26.90294
G1 X27.425 Y100.692 E26.90439
G1 X27.575 Y98.873 E26.98937
G1 X27.577 Y98.844 E26.99073
G1 X27.648 Y98.07 E27.02692
G1 X27.652 Y98.035 E27.02856
G1 X27.727 Y97.304 E27.06278
G1 X27.73 Y97.278 E27.064
G1 X27.964 Y95.171 E27.16271
G1 X27.969 Y95.124 E27.16491
G1 X28.128 Y93.862 E27.22414
G1 X28.134 Y93.817 E27.22625
G1 X28.499 Y91.218 E27.34846
G1 X28.507 Y91.167 E27.35086
G1 X28.583 Y90.683 E27.37368
G1 X28.587 Y90.657 E27.3749
G1 X28.945 Y88.491 E27.47713
G1 X28.954 Y88.44 E27.47954
G1 X29.197 Y87.106 E27.54268
G1 X29.203 Y87.074 E27.5442
G1 X29.516 Y85.449 E27.62125
G1 X29.522 Y85.418 E27.62272
G1 X29.703 Y84.525 E27.66515
G1 X29.71 Y84.491 E27.66677
G1 X29.876 Y83.716 E27.70367
G1 X29.88 Y83.698 E27.70453
G1 X30.199 Y82.248 E27.77366
G1 X30.206 Y82.215 E27.77523
G1 X30.507 Y80.913 E27.83746
G1 X30.518 Y80.867 E27.83966
G1 X30.957 Y79.089 E27.92494
G1 X30.976 Y79.016 E27.92845
G1 X31.339 Y77.681 E27.99287
G1 X31.359 Y77.612 E27.99622
G1 X31.476 Y77.217 E28.0154
G1 X31.485 Y77.186 E28.0169
G1 X31.793 Y76.184 E28.06572
G1 X31.804 Y76.15 E28.06738
G1 X32.182 Y74.967 E28.12521
G1 X32.192 Y74.935 E28.12677
G1 X32.432 Y74.21 E28.16233
G1 X32.447 Y74.167 E28.16445
G1 X32.89 Y72.89 E28.22739
G1 X32.904 Y72.849 E28.22941
G1 X33.159 Y72.145 E28.26427
G1 X33.174 Y72.106 E28.26622
G1 X33.626 Y70.907 E28.32588
G1 X33.641 Y70.867 E28.32787
G1 X33.896 Y70.217 E28.36039
G1 X33.911 Y70.181 E28.3622
G1 X34.405 Y68.966 E28.42328
G1 X34.424 Y68.92 E28.42559
G1 X34.664 Y68.355 E28.45418
G1 X34.682 Y68.313 E28.4563
G1 X35.261 Y67.002 E28.52304
G1 X35.277 Y66.967 E28.52483
G1 X35.511 Y66.454 E28.55109
G1 X35.532 Y66.409 E28.5534
G1 X36.104 Y65.205 E28.61547
G1 X36.125 Y65.162 E28.61769
G1 X36.318 Y64.771 E28.638
G1 X36.334 Y64.738 E28.63971
G1 X36.927 Y63.57 E28.7007
G1 X36.948 Y63.529 E28.70285
G1 X37.18 Y63.088 E28.72605
G1 X37.206 Y63.04 E28.72859
G1 X38.112 Y61.387 E28.81636
G1 X38.156 Y61.309 E28.82053
G1 X38.923 Y59.998 E28.89126
G1 X38.948 Y59.955 E28.89358
G1 X39.125 Y59.663 E28.90948
G1 X39.156 Y59.614 E28.91218
G1 X40.127 Y58.075 E28.99691
G1 X40.182 Y57.991 E29.00158
G1 X41.178 Y56.518 E29.08438
G1 X41.235 Y56.437 E29.08899
G1 X42.204 Y55.095 E29.16607
G1 X42.267 Y55.01 E29.171
G1 X43.392 Y53.556 E29.2566
G1 X43.457 Y53.475 E29.26144
G1 X44.57 Y52.129 E29.34276
G1 X44.645 Y52.041 E29.34815
G1 X45.872 Y50.662 E29.4341
G1 X45.947 Y50.581 E29.43924
G1 X47.135 Y49.335 E29.5194
G1 X47.217 Y49.252 E29.52484
G1 F1800 E25.02484
;MESH:visera_mod_v2_3.stl
G0 F3600 X62.628 Y41.309
G0 X66.109 Y39.743
G0 X68.442 Y38.838
G0 X70.937 Y37.977
G0 X75.743 Y36.588
G0 X80.149 Y35.561
G0 X86.709 Y34.361
G0 X93.203 Y33.438
G0 X106.474 Y31.943
G0 X186.838 Y23.596
G0 X188.444 Y23.736
G0 X188.445 Y27.204
G0 X74.862 Y62.815
G0 X73.508 Y61.848
;TYPE:WALL-INNER
G1 F1800 E29.52484
G1 F900 X73.196 Y62.313 E29.55091
G1 X72.337 Y63.62 E29.62374
G1 X71.169 Y65.523 E29.72771
G1 X70.082 Y67.415 E29.82931
G1 X69.003 Y69.468 E29.93731
G1 X68.056 Y71.451 E30.03963
G1 X67.174 Y73.479 E30.14261
G1 X66.307 Y75.671 E30.25237
G1 X65.685 Y77.411 E30.33842
G1 X65.103 Y79.176 E30.42495
G1 X64.563 Y80.971 E30.51224
