;FLAVOR:Marlin
;TIME:4967
;Filament used: 5.03919m
;Layer height: 0.28
;MINX:30.311
;MINY:24.025
;MINZ:0.28
;MAXX:189.689
;MAXY:195.975
;MAXZ:14.84
;Generated with Cura_SteamEngine 4.2.1
M140 S50
M105
M190 S50
M104 S190
M105
M109 S190
M82 ;absolute extrusion mode
G21 ;metric values
G90 ;absolute positioning
M82 ;set extruder to absolute mode
M107 ;start with the fan off
G28 X0 Y0 ;move X/Y to min endstops
G28 Z0 ;move Z to min endstops
G1 Z15.0 F60 ;move the platform down 15mm
G92 E0 ;zero the extruded length
G1 F200 E3 ;extrude 3mm of feed stock
G92 E0 ;zero the extruded length again
G1 F60
M117 Printing...
G5
M141 S28
G92 E0
G92 E0
G1 F2700 E-4.5
;LAYER_COUNT:53
;LAYER:0
M107
M204 S300
M205 X8.18 Y8.18
;MESH:visera_mod_v2_3.stl
G0 F1309.1 X83.891 Y42.792 Z0.28
M205 X3 Y3
;TYPE:WALL-INNER
G1 F2700 E0
G1 F1200 X83.487 Y42.222 E0.03253
G1 X82.998 Y41.731 E0.0648
G1 X82.423 Y41.327 E0.09752
G1 X81.791 Y41.034 E0.12996
G1 X81.12 Y40.855 E0.1623
G1 X80.423 Y40.792 E0.19488
G1 X79.73 Y40.855 E0.22729
G1 X79.057 Y41.032 E0.25969
G1 X78.42 Y41.327 E0.29238
G1 X77.848 Y41.731 E0.32499
G1 X77.355 Y42.224 E0.35745
G1 X76.957 Y42.793 E0.38978
G1 X76.662 Y43.426 E0.4223
G1 X76.481 Y44.1 E0.4548
G1 X76.418 Y44.795 E0.48729
G1 X76.481 Y45.49 E0.51979
G1 X76.662 Y46.168 E0.55246
G1 X76.957 Y46.797 E0.58481
G1 X77.355 Y47.368 E0.61722
G1 X77.85 Y47.865 E0.64989
G1 X78.422 Y48.263 E0.68233
G1 X79.054 Y48.559 E0.71483
G1 X79.729 Y48.737 E0.74734
G1 X80.423 Y48.8 E0.77978
G1 X81.119 Y48.737 E0.81233
G1 X81.793 Y48.558 E0.8448
G1 X82.422 Y48.263 E0.87715
G1 X82.996 Y47.865 E0.90967
G1 X83.489 Y47.37 E0.9422
G1 X83.891 Y46.797 E0.9748
G1 X84.184 Y46.166 E1.00719
G1 X84.367 Y45.488 E1.03989
G1 X84.424 Y44.795 E1.07227
G1 X84.367 Y44.1 E1.10474
G1 X84.184 Y43.429 E1.13713
G1 X83.891 Y42.792 E1.16977
M205 X8.18 Y8.18
G1 F2700 E-3.33023
G0 F1309.1 X73.508 Y61.848
M205 X3 Y3
G1 F2700 E1.16977
G1 F1200 X73.196 Y62.313 E1.19585
G1 X72.337 Y63.62 E1.26868
G1 X71.169 Y65.523 E1.37265
G1 X70.082 Y67.415 E1.47425
G1 X69.003 Y69.468 E1.58225
G1 X68.056 Y71.451 E1.68457
G1 X67.174 Y73.479 E1.78755
G1 X66.307 Y75.671 E1.89731
G1 X65.685 Y77.411 E1.98335
G1 X65.103 Y79.176 E2.06989
G1 X64.563 Y80.971 E2.15718
G1 X64.065 Y82.794 E2.24517
G1 X63.609 Y84.646 E2.33399
G1 X63.191 Y86.529 E2.4238
G1 X62.809 Y88.439 E2.5145
G1 X62.467 Y90.379 E2.60623
G1 X62.139 Y92.494 E2.70589
G1 X61.871 Y94.497 E2.79999
G1 X61.642 Y96.529 E2.8952
G1 X61.445 Y98.59 E2.99161
G1 X61.287 Y100.681 E3.08925
G1 X61.159 Y102.804 E3.18829
G1 X61.067 Y104.957 E3.28863
G1 X61.008 Y107.141 E3.39037
G1 X60.989 Y108.889 E3.47176
G1 X60.982 Y110 E3.5235
G1 X60.987 Y110.957 E3.56806
G1 X61.003 Y112.531 E3.64136
G1 X61.061 Y114.881 E3.75082
G1 X61.149 Y117.036 E3.85125
G1 X61.277 Y119.162 E3.95042
G1 X61.432 Y121.256 E4.04819
G1 X61.627 Y123.319 E4.14468
G1 X61.854 Y125.352 E4.23994
G1 X62.119 Y127.358 E4.33416
G1 X62.42 Y129.328 E4.42695
G1 X62.782 Y131.417 E4.52567
G1 X63.158 Y133.333 E4.61659
G1 X63.574 Y135.216 E4.70639
G1 X64.03 Y137.071 E4.79533
G1 X64.524 Y138.896 E4.88337
G1 X65.062 Y140.695 E4.97081
G1 X65.64 Y142.46 E5.05729
G1 X66.258 Y144.202 E5.14336
G1 X67.069 Y146.271 E5.24683
G1 X68 Y148.424 E5.35606
G1 X68.945 Y150.408 E5.45839
G1 X69.955 Y152.348 E5.56023
G1 X71.1 Y154.361 E5.66807
G1 X72.241 Y156.204 E5.769
G1 X73.467 Y158.02 E5.87103
G1 X74.83 Y159.888 E5.9787
G1 X76.185 Y161.599 E6.08033
G1 X77.689 Y163.359 E6.18813
G1 X78.737 Y164.517 E6.26085
G1 X80.302 Y166.132 E6.36557
G1 X81.499 Y167.286 E6.44299
G1 X82.026 Y167.781 E6.47666
G1 X82.916 Y168.585 E6.53251
G1 X83.905 Y169.449 E6.59366
G1 X84.911 Y170.294 E6.65483
G1 X85.938 Y171.121 E6.71623
G1 X86.981 Y171.929 E6.77767
G1 X88.039 Y172.72 E6.83918
G1 X89.116 Y173.491 E6.90085
G1 X90.213 Y174.244 E6.96281
G1 X92.335 Y175.624 E7.08068
G1 X94.603 Y176.991 E7.20399
G1 X96.917 Y178.278 E7.32728
G1 X99.267 Y179.481 E7.45021
G1 X101.67 Y180.605 E7.57374
G1 X104.094 Y181.641 E7.69649
G1 X105.786 Y182.302 E7.78107
G1 X107.587 Y182.957 E7.87031
G1 X109.291 Y183.526 E7.95396
G1 X110.998 Y184.051 E8.03712
G1 X112.814 Y184.556 E8.12489
G1 X113.982 Y184.848 E8.18095
G1 X114.525 Y184.983 E8.207
G1 X116.237 Y185.362 E8.28865
G1 X117.613 Y185.627 E8.3539
G1 X116.225 Y185.483 E8.36365
G1 X114.492 Y185.303 E8.40875
G1 X113.935 Y185.246 E8.43225
G1 X102.101 Y184.013 E8.98627
G1 X99.551 Y183.734 E9.10572
G1 X96.792 Y183.417 E9.23503
G1 X93.993 Y183.076 E9.36633
G1 X91.189 Y182.701 E9.49806
G1 X90.296 Y182.575 E9.54005
G1 X87.452 Y182.145 E9.67399
G1 X84.151 Y181.588 E9.82987
G1 X81.373 Y181.054 E9.96159
G1 X78.609 Y180.444 E10.09339
G1 X76.476 Y179.919 E10.19568
G1 X75.891 Y179.764 E10.22386
G1 X73.78 Y179.169 E10.32598
G1 X72.433 Y178.757 E10.39157
G1 X71.108 Y178.321 E10.45653
G1 X69.814 Y177.865 E10.52041
G1 X69.066 Y177.587 E10.55757
G1 X68.505 Y177.373 E10.58553
G1 X67.784 Y177.09 E10.6216
G1 X67.226 Y176.86 E10.6497
G1 X66.522 Y176.562 E10.6853
G1 X65.264 Y175.998 E10.74949
G1 X64.013 Y175.399 E10.81408
G1 X62.821 Y174.787 E10.87647
G1 X61.654 Y174.148 E10.93842
G1 X60.516 Y173.482 E10.99982
G1 X59.363 Y172.767 E11.06299
G1 X58.405 Y172.137 E11.11638
G1 X57.429 Y171.459 E11.17172
G1 X56.485 Y170.768 E11.22619
G1 X55.574 Y170.062 E11.27986
G1 X54.65 Y169.309 E11.33536
G1 X53.75 Y168.536 E11.39061
G1 X52.887 Y167.755 E11.44481
G1 X52.015 Y166.919 E11.50106
G1 X51.159 Y166.061 E11.55749
G1 X50.344 Y165.201 E11.61266
G1 X49.513 Y164.273 E11.67067
G1 X48.713 Y163.335 E11.72807
G1 X47.658 Y162.015 E11.80675
G1 X47.324 Y161.577 E11.8324
G1 X46.619 Y160.621 E11.88771
G1 X46.308 Y160.186 E11.91261
G1 X45.304 Y158.709 E11.99577
G1 X45.008 Y158.247 E12.02132
G1 X44.356 Y157.209 E12.0784
G1 X44.062 Y156.724 E12.10481
G1 X43.717 Y156.14 E12.13639
G1 X43.075 Y155.009 E12.19695
G1 X42.463 Y153.872 E12.25708
G1 X41.872 Y152.713 E12.31766
G1 X41.253 Y151.434 E12.38382
G1 X40.641 Y150.098 E12.45225
G1 X40.297 Y149.316 E12.49203
G1 X40.06 Y148.756 E12.52034
G1 X39.731 Y147.953 E12.56075
G1 X39.18 Y146.555 E12.63072
G1 X38.965 Y145.979 E12.65935
G1 X38.659 Y145.143 E12.7008
G1 X38.156 Y143.695 E12.77218
G1 X37.683 Y142.243 E12.84329
G1 X37.192 Y140.619 E12.92229
G1 X36.732 Y138.975 E13.00178
G1 X36.485 Y138.036 E13.04699
G1 X36.301 Y137.311 E13.08182
G1 X36.069 Y136.355 E13.12763
G1 X35.898 Y135.618 E13.16286
G1 X35.681 Y134.655 E13.20882
G1 X35.316 Y132.899 E13.29234
G1 X34.98 Y131.135 E13.37595
G1 X34.679 Y129.352 E13.46015
G1 X34.4 Y127.529 E13.54603
G1 X34.156 Y125.699 E13.63199
G1 X34.025 Y124.639 E13.68173
G1 X33.822 Y122.755 E13.76996
G1 X33.646 Y120.849 E13.85909
G1 X33.504 Y118.923 E13.94902
G1 X33.434 Y117.817 E14.00062
G1 X33.386 Y116.979 E14.0397
G1 X33.301 Y114.998 E14.13203
G1 X33.232 Y112.509 E14.24798
G1 X33.208 Y110.011 E14.3643
G1 X33.231 Y107.494 E14.48151
G1 X33.3 Y105.007 E14.59736
G1 X33.387 Y103.019 E14.69001
G1 X33.504 Y101.077 E14.78061
G1 X33.646 Y99.15 E14.87058
G1 X33.821 Y97.246 E14.95961
G1 X34.026 Y95.365 E15.04772
G1 X34.156 Y94.305 E15.09744
G1 X34.26 Y93.501 E15.13519
G1 X34.399 Y92.472 E15.18354
G1 X34.678 Y90.651 E15.26933
G1 X34.979 Y88.865 E15.35366
G1 X35.316 Y87.101 E15.43729
G1 X35.682 Y85.351 E15.52054
G1 X36.068 Y83.646 E15.60194
G1 X36.3 Y82.69 E15.64775
G1 X36.484 Y81.965 E15.68257
G1 X36.73 Y81.026 E15.72777
G1 X37.192 Y79.382 E15.80729
G1 X37.683 Y77.758 E15.88629
G1 X38.157 Y76.305 E15.95746
G1 X38.66 Y74.854 E16.02897
G1 X39.181 Y73.442 E16.09905
G1 X39.73 Y72.048 E16.16881
G1 X40.059 Y71.245 E16.20922
G1 X40.296 Y70.684 E16.23758
G1 X40.638 Y69.903 E16.27728
G1 X41.249 Y68.574 E16.34539
G1 X41.504 Y68.039 E16.37299
G1 X41.873 Y67.285 E16.41207
G1 X42.463 Y66.129 E16.47251
G1 X43.075 Y64.991 E16.53267
G1 X43.713 Y63.868 E16.59282
G1 X44.061 Y63.278 E16.62471
G1 X44.356 Y62.792 E16.65118
G1 X45.007 Y61.754 E16.70824
G1 X45.304 Y61.291 E16.73385
G1 X46.294 Y59.833 E16.81591
G1 X46.622 Y59.377 E16.84207
G1 X47.323 Y58.422 E16.89723
G1 X47.645 Y57.999 E16.92199
G1 X48.714 Y56.664 E17.00162
G1 X49.514 Y55.727 E17.05899
G1 X50.326 Y54.821 E17.11564
G1 X51.167 Y53.932 E17.17263
G1 X52.018 Y53.076 E17.22883
G1 X52.515 Y52.597 E17.26097
G1 X53.408 Y51.772 E17.31758
G1 X54.277 Y51.006 E17.37152
G1 X55.183 Y50.252 E17.42641
G1 X56.104 Y49.523 E17.4811
G1 X57.043 Y48.82 E17.53572
G1 X58.012 Y48.131 E17.59109
G1 X58.968 Y47.49 E17.64468
G1 X60.109 Y46.765 E17.70763
G1 X61.253 Y46.083 E17.76965
G1 X62.399 Y45.443 E17.83077
G1 X63.587 Y44.822 E17.89319
G1 X64.728 Y44.258 E17.95246
G1 X65.263 Y44.002 E17.98007
G1 X66.513 Y43.442 E18.04385
G1 X67.225 Y43.141 E18.07985
G1 X67.778 Y42.913 E18.1077
G1 X68.504 Y42.627 E18.14403
G1 X69.064 Y42.414 E18.17193
G1 X69.812 Y42.135 E18.20911
G1 X71.111 Y41.677 E18.27324
G1 X72.432 Y41.243 E18.33799
G1 X73.767 Y40.835 E18.40299
G1 X74.352 Y40.668 E18.43132
G1 X75.892 Y40.237 E18.50578
G1 X76.47 Y40.084 E18.53362
G1 X78.609 Y39.554 E18.63624
G1 X81.373 Y38.948 E18.768
G1 X84.152 Y38.411 E18.89979
G1 X87.451 Y37.853 E19.05559
G1 X90.294 Y37.427 E19.18945
G1 X91.189 Y37.299 E19.23155
G1 X93.992 Y36.924 E19.36323
G1 X96.792 Y36.582 E19.49458
G1 X100.422 Y36.167 E19.66471
G1 X106.843 Y35.487 E19.96537
G1 X113.947 Y34.751 E20.29793
G1 X114.599 Y34.684 E20.32845
G1 X116.436 Y34.493 E20.41445
G1 X117.656 Y34.366 E20.47157
G1 X116.446 Y34.597 E20.47914
G1 X114.631 Y34.99 E20.52375
G1 X113.995 Y35.148 E20.55073
G1 X112.92 Y35.417 E20.60233
G1 X111.207 Y35.889 E20.68506
G1 X109.397 Y36.44 E20.77316
G1 X107.692 Y37.005 E20.8568
G1 X105.992 Y37.618 E20.94095
G1 X104.197 Y38.317 E21.03065
G1 X101.876 Y39.302 E21.14805
G1 X99.47 Y40.42 E21.27159
G1 X97.116 Y41.614 E21.39449
G1 X94.8 Y42.893 E21.51769
G1 X92.524 Y44.253 E21.64115
G1 X90.306 Y45.693 E21.76429
G1 X89.209 Y46.443 E21.82616
G1 X88.129 Y47.215 E21.88798
G1 X87.069 Y48.004 E21.94951
G1 X86.027 Y48.809 E22.01082
G1 X84.997 Y49.634 E22.07227
G1 X83.989 Y50.478 E22.13349
G1 X82.999 Y51.339 E22.19458
G1 X82.026 Y52.22 E22.2557
G1 X81.499 Y52.715 E22.28937
G1 X80.478 Y53.696 E22.3553
G1 X78.824 Y55.389 E22.46551
G1 X77.876 Y56.43 E22.53107
G1 X77.19 Y57.213 E22.57954
G1 X76.408 Y58.128 E22.63559
G1 X75.047 Y59.777 E22.73515
G1 X74.719 Y60.196 E22.75993
G1 X73.508 Y61.848 E22.85531
M205 X8.18 Y8.18
G1 F2700 E18.35531
G0 F1309.1 X56.82 Y91.981
M205 X3 Y3
G1 F2700 E22.85531
G1 F1200 X57.494 Y91.796 E22.88785
G1 X58.123 Y91.505 E22.92012
G1 X58.696 Y91.101 E22.95277
G1 X59.191 Y90.608 E22.9853
G1 X59.589 Y90.037 E23.01771
G1 X59.884 Y89.406 E23.05014
G1 X60.065 Y88.732 E23.08264
G1 X60.128 Y88.037 E23.11513
G1 X60.065 Y87.342 E23.14763
G1 X59.884 Y86.666 E23.18022
G1 X59.589 Y86.035 E23.21265
G1 X59.191 Y85.464 E23.24506
G1 X58.696 Y84.969 E23.27766
G1 X58.123 Y84.569 E23.3102
G1 X57.494 Y84.275 E23.34253
G1 X56.82 Y84.091 E23.37506
G1 X56.121 Y84.034 E23.40772
G1 X55.428 Y84.091 E23.44009
G1 X54.752 Y84.274 E23.4727
G1 X54.12 Y84.571 E23.50522
G1 X53.55 Y84.97 E23.53762
G1 X53.055 Y85.464 E23.57018
G1 X52.657 Y86.035 E23.60259
G1 X52.362 Y86.666 E23.63503
G1 X52.181 Y87.342 E23.66761
G1 X52.118 Y88.037 E23.70011
G1 X52.181 Y88.732 E23.7326
G1 X52.362 Y89.406 E23.7651
G1 X52.657 Y90.037 E23.79753
G1 X53.055 Y90.608 E23.82994
G1 X53.548 Y91.101 E23.86241
G1 X54.121 Y91.505 E23.89505
G1 X54.754 Y91.796 E23.92749
G1 X55.426 Y91.979 E23.95992
G1 X56.121 Y92.038 E23.9924
G1 X56.82 Y91.981 E24.02506
M205 X8.18 Y8.18
G1 F2700 E19.52506
G0 F1309.1 X56.121 Y127.958
M205 X3 Y3
G1 F2700 E24.02506
G1 F1200 X55.426 Y128.023 E24.05756
G1 X54.755 Y128.2 E24.08988
G1 X54.121 Y128.495 E24.12244
G1 X53.55 Y128.895 E24.1549
G1 X53.055 Y129.39 E24.1875
G1 X52.657 Y129.961 E24.21991
G1 X52.362 Y130.592 E24.25234
G1 X52.181 Y131.268 E24.28493
G1 X52.118 Y131.963 E24.31742
G1 X52.181 Y132.66 E24.35001
G1 X52.362 Y133.336 E24.3826
G1 X52.657 Y133.965 E24.41495
G1 X53.055 Y134.536 E24.44735
G1 X53.55 Y135.033 E24.48002
G1 X54.122 Y135.431 E24.51247
G1 X54.754 Y135.726 E24.54494
G1 X55.427 Y135.905 E24.57737
G1 X56.121 Y135.968 E24.60982
G1 X56.819 Y135.905 E24.64245
G1 X57.493 Y135.726 E24.67492
G1 X58.123 Y135.431 E24.70732
G1 X58.695 Y135.033 E24.73976
G1 X59.191 Y134.537 E24.77243
G1 X59.589 Y133.965 E24.80487
G1 X59.884 Y133.336 E24.83722
G1 X60.065 Y132.66 E24.86981
G1 X60.128 Y131.963 E24.9024
G1 X60.065 Y131.268 E24.93489
G1 X59.884 Y130.592 E24.96748
G1 X59.589 Y129.961 E24.99991
G1 X59.191 Y129.39 E25.03232
G1 X58.696 Y128.895 E25.06492
G1 X58.121 Y128.495 E25.09754
G1 X57.491 Y128.202 E25.12989
G1 X56.82 Y128.023 E25.16223
G1 X56.121 Y127.958 E25.19491
M205 X8.18 Y8.18
G1 F2700 E20.69491
G0 F1309.1 X79.728 Y179.149
M205 X3 Y3
G1 F2700 E25.19491
G1 F1200 X80.423 Y179.206 E25.22738
G1 X81.12 Y179.147 E25.25996
G1 X81.794 Y178.963 E25.29249
G1 X82.421 Y178.671 E25.3247
G1 X82.996 Y178.271 E25.35731
G1 X83.487 Y177.776 E25.38978
G1 X83.891 Y177.206 E25.42231
G1 X84.184 Y176.572 E25.45483
G1 X84.367 Y175.898 E25.48735
G1 X84.424 Y175.205 E25.51973
G1 X84.367 Y174.51 E25.5522
G1 X84.184 Y173.836 E25.58472
G1 X83.891 Y173.202 E25.61724
G1 X83.487 Y172.632 E25.64977
G1 X82.996 Y172.137 E25.68224
G1 X82.421 Y171.737 E25.71486
G1 X81.794 Y171.445 E25.74706
G1 X81.12 Y171.261 E25.77959
G1 X80.423 Y171.202 E25.81217
G1 X79.728 Y171.259 E25.84464
G1 X79.052 Y171.444 E25.87727
G1 X78.421 Y171.737 E25.90967
G1 X77.85 Y172.137 E25.94213
G1 X77.355 Y172.632 E25.97473
G1 X76.957 Y173.203 E26.00714
G1 X76.662 Y173.834 E26.03957
G1 X76.481 Y174.508 E26.07207
G1 X76.418 Y175.205 E26.10465
G1 X76.481 Y175.9 E26.13715
G1 X76.662 Y176.574 E26.16964
G1 X76.957 Y177.205 E26.20208
G1 X77.355 Y177.776 E26.23449
G1 X77.85 Y178.271 E26.26709
G1 X78.421 Y178.671 E26.29955
G1 X79.052 Y178.964 E26.33194
G1 X79.728 Y179.149 E26.36458
M205 X8.18 Y8.18
G1 F2700 E21.86458
G0 F1309.1 X186.569 Y194.704
M205 X3 Y3
G1 F2700 E26.36458
G1 F1200 X136.511 Y189.502 E28.70804
G1 X136.564 Y188.238 E28.76695
G1 X136.572 Y188.023 E28.77697
G1 X136.786 Y188.048 E28.78331
G1 X186.715 Y194.007 E31.12472
G1 X186.788 Y194.022 E31.12819
G1 X186.789 Y194.504 E31.15063
G1 X186.789 Y194.506 E31.15072
G1 X186.789 Y194.726 E31.16097
G1 X186.57 Y194.705 E31.16743
G1 X186.569 Y194.704 E31.1675
M205 X8.18 Y8.18
G1 F2700 E26.6675
G0 F1309.1 X186.569 Y25.297
M205 X3 Y3
G1 F2700 E31.1675
G1 F1200 X186.57 Y25.296 E31.16756
G1 X186.789 Y25.275 E31.17781
G1 X186.789 Y25.495 E31.18427
G1 X186.789 Y25.497 E31.18436
G1 X186.788 Y25.981 E31.2069
G1 X136.787 Y31.951 E33.55169
G1 X136.574 Y31.976 E33.56168
G1 X136.565 Y31.762 E33.56799
G1 X136.51 Y30.499 E33.62686
G1 X186.569 Y25.297 E35.97037
M205 X8.18 Y8.18
G1 F2700 E31.47037
G0 F1309.1 X83.543 Y42.993
M205 X3 Y3
G1 F2700 E35.97037
G1 F1200 X83.18 Y42.481 E35.99959
G1 X82.739 Y42.038 E36.0287
G1 X82.222 Y41.675 E36.05811
G1 X81.654 Y41.411 E36.08728
G1 X81.05 Y41.25 E36.11638
G1 X80.423 Y41.194 E36.1457
G1 X79.799 Y41.25 E36.17487
G1 X79.193 Y41.41 E36.20405
G1 X78.621 Y41.675 E36.23341
G1 X78.107 Y42.038 E36.26271
G1 X77.663 Y42.482 E36.29195
G1 X77.305 Y42.994 E36.32104
G1 X77.039 Y43.564 E36.35033
G1 X76.876 Y44.17 E36.37955
G1 X76.82 Y44.795 E36.40877
G1 X76.876 Y45.42 E36.43799
G1 X77.039 Y46.03 E36.46739
G1 X77.305 Y46.596 E36.49651
G1 X77.663 Y47.111 E36.52571
G1 X78.108 Y47.557 E36.55505
G1 X78.622 Y47.915 E36.58422
G1 X79.191 Y48.181 E36.61347
G1 X79.799 Y48.342 E36.64275
G1 X80.423 Y48.398 E36.67193
G1 X81.049 Y48.342 E36.70119
G1 X81.656 Y48.181 E36.73043
G1 X82.222 Y47.915 E36.75955
G1 X82.738 Y47.557 E36.7888
G1 X83.181 Y47.112 E36.81804
G1 X83.543 Y46.596 E36.84739
