;FLAVOR:Marlin
;TIME:4652
;Filament used: 5.04144m
;Layer height: 0.28
;MINX:20.047
;MINY:14.045
;MINZ:0.28
;MAXX:188.009
;MAXY:195.957
;MAXZ:14.84
;Generated with Cura_SteamEngine 4.2.1
M140 S50
M105
M190 S50
M104 S190
M105
M109 S190
M82 ;absolute extrusion mode
G21 ;metric values
G90 ;absolute positioning
M82 ;set extruder to absolute mode
M107 ;start with the fan off
G28 X0 Y0 ;move X/Y to min endstops
G28 Z0 ;move Z to min endstops
G1 Z15.0 F100 ;move the platform down 15mm
G92 E0 ;zero the extruded length
G1 F200 E3 ;extrude 3mm of feed stock
G92 E0 ;zero the extruded length again
G1 F100
M117 Printing...
G5
M141 S28
G92 E0
G92 E0
G1 F2400 E-4.5
;LAYER_COUNT:53
;LAYER:0
M106 S255
M204 S5000
M205 X15 Y15
G0 F3000 X40.806 Y42.806 Z0.28
M204 S1800
M205 X8 Y8
;TYPE:SKIRT
G1 F2400 E0
G1 F1050 X42.062 Y41.581 E0.08986
G1 X42.194 Y41.457 E0.09914
G1 X43.458 Y40.307 E0.18667
G1 X43.597 Y40.185 E0.19614
G1 X44.858 Y39.117 E0.28079
G1 X44.991 Y39.008 E0.28959
G1 X46.199 Y38.051 E0.36853
G1 X46.331 Y37.95 E0.37704
G1 X47.472 Y37.104 E0.4498
G1 X47.591 Y37.018 E0.45732
G1 X48.696 Y36.246 E0.52636
G1 X48.818 Y36.164 E0.53389
G1 X50.074 Y35.338 E0.61089
G1 X50.196 Y35.26 E0.61831
G1 X51.305 Y34.574 E0.6851
G1 X51.426 Y34.501 E0.69234
G1 X52.528 Y33.86 E0.75764
G1 X52.63 Y33.802 E0.76365
G1 X53.55 Y33.294 E0.81748
G1 X53.647 Y33.242 E0.82312
G1 X54.887 Y32.591 E0.89485
G1 X55.005 Y32.531 E0.90163
G1 X56.137 Y31.973 E0.96627
G1 X56.26 Y31.914 E0.97326
G1 X57.536 Y31.326 E1.04522
G1 X57.639 Y31.28 E1.051
G1 X58.729 Y30.806 E1.11188
G1 X58.818 Y30.768 E1.11684
G1 X59.934 Y30.307 E1.17869
G1 X60.029 Y30.269 E1.18393
G1 X61.146 Y29.833 E1.24534
G1 X61.276 Y29.784 E1.25246
G1 X62.529 Y29.333 E1.32067
G1 X62.596 Y29.31 E1.3243
G1 X63.626 Y28.955 E1.3801
G1 X63.716 Y28.925 E1.38496
G1 X65.371 Y28.388 E1.47408
G1 X65.451 Y28.363 E1.47838
G1 X66.256 Y28.116 E1.52151
G1 X66.337 Y28.091 E1.52585
G1 X67.786 Y27.672 E1.60311
G1 X67.863 Y27.651 E1.60719
G1 X68.934 Y27.359 E1.66405
G1 X69.003 Y27.34 E1.66772
G1 X70.228 Y27.024 E1.73252
G1 X70.292 Y27.008 E1.7359
G1 X71.335 Y26.753 E1.79089
G1 X71.395 Y26.739 E1.79405
G1 X72.558 Y26.469 E1.8552
G1 X72.608 Y26.458 E1.85783
G1 X73.632 Y26.231 E1.91155
G1 X73.684 Y26.219 E1.91428
G1 X74.736 Y25.997 E1.96935
G1 X74.789 Y25.987 E1.97212
G1 X75.947 Y25.755 E2.03261
G1 X75.994 Y25.745 E2.03507
G1 X76.88 Y25.576 E2.08127
G1 X76.92 Y25.569 E2.08335
G1 X78.207 Y25.334 E2.15036
G1 X78.254 Y25.326 E2.1528
G1 X79.062 Y25.186 E2.19481
G1 X79.088 Y25.181 E2.19616
G1 X80.587 Y24.929 E2.27402
G1 X80.627 Y24.923 E2.27609
G1 X81.308 Y24.814 E2.31142
G1 X81.35 Y24.807 E2.3136
G1 X83.228 Y24.522 E2.41089
G1 X83.281 Y24.514 E2.41364
G1 X85.618 Y24.184 E2.53453
G1 X85.669 Y24.177 E2.53716
G1 X87.858 Y23.89 E2.65024
G1 X87.898 Y23.885 E2.65231
G1 X90.104 Y23.613 E2.76616
G1 X90.138 Y23.609 E2.76791
G1 X92.976 Y23.278 E2.91426
G1 X93.007 Y23.275 E2.91586
G1 X95.943 Y22.95 E3.06716
G1 X95.965 Y22.947 E3.06829
G1 X100.99 Y22.413 E3.32713
G1 X101.003 Y22.412 E3.3278
G1 X144.383 Y17.908 E5.56169
G1 X180.623 Y14.142 E7.42792
G1 X180.699 Y14.135 E7.43183
G1 X181.35 Y14.077 E7.46531
G1 X181.657 Y14.058 E7.48106
G1 X182.093 Y14.045 E7.5034
G1 X182.778 Y14.07 E7.53851
G1 X183.308 Y14.124 E7.5658
G1 X183.945 Y14.229 E7.59887
G1 X184.565 Y14.412 E7.63198
G1 X185.157 Y14.67 E7.66506
G1 X185.713 Y14.999 E7.69815
G1 X186.223 Y15.395 E7.73122
G1 X186.681 Y15.85 E7.76429
G1 X187.08 Y16.359 E7.79741
G1 X187.412 Y16.912 E7.83045
G1 X187.674 Y17.503 E7.86356
G1 X187.86 Y18.121 E7.89662
G1 X187.969 Y18.758 E7.92972
G1 X187.996 Y19.154 E7.95005
G1 X188.004 Y19.41 E7.96317
G1 X188.007 Y19.569 E7.97132
G1 X188.008 Y21.06 E8.04769
G1 X188.008 Y21.135 E8.05153
G1 X187.999 Y21.795 E8.08534
G1 X187.95 Y22.439 E8.11842
G1 X187.822 Y23.072 E8.1515
G1 X187.617 Y23.685 E8.18461
G1 X187.338 Y24.267 E8.21766
G1 X186.989 Y24.811 E8.25077
G1 X186.575 Y25.307 E8.28386
G1 X186.104 Y25.748 E8.31691
G1 X185.719 Y26.037 E8.34157
G1 X185.119 Y26.446 E8.37876
G1 X182.868 Y28.014 E8.51928
G1 X180.679 Y29.635 E8.65879
G1 X178.606 Y31.261 E8.79374
G1 X176.534 Y32.985 E8.9318
G1 X174.537 Y34.742 E9.06804
G1 X172.55 Y36.592 E9.2071
G1 X170.663 Y38.455 E9.34292
G1 X168.785 Y40.415 E9.48196
G1 X167.004 Y42.38 E9.6178
G1 X165.242 Y44.44 E9.75665
G1 X163.571 Y46.512 E9.89299
G1 X161.955 Y48.633 E10.02957
G1 X160.378 Y50.829 E10.16804
G1 X158.883 Y53.041 E10.3048
G1 X157.454 Y55.289 E10.44123
G1 X156.068 Y57.615 E10.57992
G1 X154.754 Y59.967 E10.71792
G1 X153.529 Y62.311 E10.85339
G1 X152.352 Y64.731 E10.99122
G1 X151.248 Y67.17 E11.12835
G1 X150.206 Y69.66 E11.26661
G1 X149.243 Y72.151 E11.4034
G1 X148.356 Y74.668 E11.54009
G1 X147.528 Y77.24 E11.67849
G1 X146.788 Y79.779 E11.81395
G1 X146.103 Y82.41 E11.95321
G1 X145.5 Y85.02 E12.09041
G1 X144.97 Y87.656 E12.22813
G1 X144.525 Y90.252 E12.36304
G1 X144.138 Y92.963 E12.50331
G1 X143.84 Y95.58 E12.63822
G1 X143.612 Y98.251 E12.77553
G1 X143.458 Y100.954 E12.9142
G1 X143.381 Y103.629 E13.05127
G1 X143.379 Y106.303 E13.18824
G1 X143.454 Y108.975 E13.32515
G1 X143.606 Y111.681 E13.46397
G1 X143.829 Y114.315 E13.59937
G1 X144.134 Y117.009 E13.73824
G1 X144.509 Y119.649 E13.87482
G1 X144.958 Y122.273 E14.01118
G1 X145.482 Y124.894 E14.14808
G1 X146.089 Y127.54 E14.28713
G1 X146.766 Y130.142 E14.42485
G1 X147.502 Y132.679 E14.56015
G1 X148.334 Y135.27 E14.69954
G1 X149.224 Y137.794 E14.83662
G1 X150.158 Y140.222 E14.96987
G1 X151.223 Y142.773 E15.11146
G1 X152.314 Y145.192 E15.24738
G1 X153.498 Y147.629 E15.38616
G1 X154.726 Y149.986 E15.52229
G1 X156.027 Y152.321 E15.6592
G1 X157.407 Y154.637 E15.79729
G1 X158.833 Y156.887 E15.93373
G1 X160.346 Y159.13 E16.07231
G1 X161.902 Y161.3 E16.20908
G1 X163.52 Y163.425 E16.34589
G1 X165.213 Y165.527 E16.48413
G1 X166.934 Y167.544 E16.61994
G1 X168.754 Y169.556 E16.7589
G1 X170.592 Y171.479 E16.89516
G1 X172.519 Y173.382 E17.03388
G1 X174.46 Y175.194 E17.16988
G1 X176.454 Y176.952 E17.30604
G1 X178.545 Y178.692 E17.44538
G1 X180.656 Y180.353 E17.58296
G1 X182.756 Y181.909 E17.71684
G1 X185.741 Y183.974 E17.90275
G1 X186.248 Y184.374 E17.93583
G1 X186.702 Y184.833 E17.96889
G1 X187.096 Y185.345 E18.00199
G1 X187.424 Y185.901 E18.03505
G1 X187.681 Y186.494 E18.06815
G1 X187.862 Y187.114 E18.10124
G1 X187.965 Y187.751 E18.13429
G1 X187.99 Y188.167 E18.15563
G1 X188.007 Y189.052 E18.20097
G1 X188.008 Y189.146 E18.20579
G1 X188.009 Y189.981 E18.24856
G1 X188.009 Y190.056 E18.2524
G1 X188 Y190.736 E18.28723
G1 X187.951 Y191.38 E18.32031
G1 X187.823 Y192.013 E18.35339
G1 X187.619 Y192.626 E18.38648
G1 X187.34 Y193.208 E18.41954
G1 X186.991 Y193.752 E18.45265
G1 X186.578 Y194.249 E18.48575
G1 X186.106 Y194.69 E18.51883
G1 X185.584 Y195.07 E18.5519
G1 X185.019 Y195.383 E18.58499
G1 X184.419 Y195.623 E18.61809
G1 X183.691 Y195.807 E18.65655
G1 X183.296 Y195.877 E18.6771
G1 X182.654 Y195.95 E18.71019
G1 X182.315 Y195.957 E18.72756
G1 X181.792 Y195.95 E18.75435
G1 X181.477 Y195.936 E18.7705
G1 X181.166 Y195.913 E18.78647
G1 X181.012 Y195.899 E18.79439
G1 X137.959 Y191.426 E21.01146
G1 X98.543 Y187.329 E23.04125
G1 X98.523 Y187.327 E23.04228
G1 X96.054 Y187.061 E23.16948
G1 X96.04 Y187.059 E23.1702
G1 X93.186 Y186.744 E23.31727
G1 X93.159 Y186.741 E23.31867
G1 X90.573 Y186.442 E23.452
G1 X90.534 Y186.438 E23.45401
G1 X87.348 Y186.045 E23.61844
G1 X87.3 Y186.039 E23.62092
G1 X85.356 Y185.781 E23.72136
G1 X85.308 Y185.774 E23.72385
G1 X83.002 Y185.446 E23.84315
G1 X82.947 Y185.438 E23.846
G1 X81.439 Y185.207 E23.92414
G1 X81.407 Y185.202 E23.9258
G1 X80.535 Y185.063 E23.97103
G1 X80.493 Y185.056 E23.97321
G1 X79.379 Y184.869 E24.03106
G1 X79.347 Y184.863 E24.03273
G1 X78.515 Y184.718 E24.07599
G1 X78.487 Y184.714 E24.07744
G1 X77.125 Y184.469 E24.14832
G1 X77.079 Y184.46 E24.15072
G1 X76.111 Y184.277 E24.20118
G1 X76.056 Y184.266 E24.20405
G1 X74.847 Y184.024 E24.26721
G1 X74.802 Y184.015 E24.26956
G1 X73.895 Y183.825 E24.31702
G1 X73.846 Y183.815 E24.31959
G1 X72.739 Y183.572 E24.37764
G1 X72.685 Y183.559 E24.38048
G1 X71.575 Y183.303 E24.43883
G1 X71.521 Y183.291 E24.44166
G1 X70.628 Y183.075 E24.48872
G1 X70.562 Y183.058 E24.49221
G1 X69.224 Y182.716 E24.56295
G1 X69.155 Y182.698 E24.5666
G1 X68.071 Y182.405 E24.62412
G1 X67.996 Y182.384 E24.62811
G1 X66.425 Y181.934 E24.71181
G1 X66.341 Y181.909 E24.7163
G1 X65.596 Y181.682 E24.75619
G1 X65.515 Y181.657 E24.76053
G1 X63.844 Y181.118 E24.85046
G1 X63.757 Y181.089 E24.85516
G1 X62.906 Y180.798 E24.90123
G1 X62.84 Y180.775 E24.90481
G1 X61.543 Y180.312 E24.97535
G1 X61.424 Y180.268 E24.98185
G1 X60.103 Y179.76 E25.05434
G1 X59.986 Y179.713 E25.0608
G1 X58.842 Y179.241 E25.12419
G1 X58.757 Y179.205 E25.12891
G1 X57.705 Y178.749 E25.18764
G1 X57.598 Y178.702 E25.19363
G1 X56.373 Y178.138 E25.2627
G1 X56.259 Y178.083 E25.26919
G1 X55.09 Y177.51 E25.33587
G1 X54.987 Y177.458 E25.34178
G1 X53.979 Y176.936 E25.39992
G1 X53.869 Y176.878 E25.40629
G1 X52.678 Y176.225 E25.47586
G1 X52.565 Y176.161 E25.48252
G1 X51.455 Y175.516 E25.54827
G1 X51.35 Y175.453 E25.55454
G1 X50.417 Y174.881 E25.6106
G1 X50.297 Y174.806 E25.61785
G1 X48.996 Y173.959 E25.69736
G1 X48.862 Y173.868 E25.70566
G1 X47.645 Y173.021 E25.78161
G1 X47.519 Y172.931 E25.78954
G1 X46.341 Y172.058 E25.86464
G1 X46.216 Y171.963 E25.87268
G1 X45.156 Y171.127 E25.94183
G1 X45.026 Y171.02 E25.95045
G1 X43.719 Y169.919 E26.03798
G1 X43.58 Y169.798 E26.04742
G1 X42.282 Y168.624 E26.13707
G1 X42.149 Y168.499 E26.14642
G1 X40.934 Y167.32 E26.23313
G1 X40.808 Y167.194 E26.24226
G1 X39.596 Y165.935 E26.33177
G1 X39.465 Y165.794 E26.34163
G1 X38.284 Y164.473 E26.43239
G1 X38.17 Y164.341 E26.44133
G1 X37.038 Y162.986 E26.53176
G1 X36.928 Y162.849 E26.54076
G1 X35.865 Y161.486 E26.6293
G1 X35.764 Y161.352 E26.63789
G1 X34.683 Y159.87 E26.73185
G1 X34.577 Y159.72 E26.74126
G1 X33.454 Y158.061 E26.84387
G1 X33.365 Y157.924 E26.85224
G1 X32.509 Y156.57 E26.93429
G1 X32.455 Y156.483 E26.93953
G1 X32.308 Y156.24 E26.95408
G1 X32.275 Y156.186 E26.95732
G1 X31.491 Y154.854 E27.03649
G1 X31.45 Y154.782 E27.04073
G1 X31.294 Y154.507 E27.05692
G1 X31.256 Y154.439 E27.06091
G1 X30.482 Y153.026 E27.14344
G1 X30.445 Y152.958 E27.1474
G1 X30.279 Y152.644 E27.16559
G1 X30.243 Y152.574 E27.16963
G1 X29.584 Y151.281 E27.24396
G1 X29.553 Y151.22 E27.24746
G1 X29.303 Y150.713 E27.27642
G1 X29.269 Y150.643 E27.2804
G1 X28.706 Y149.457 E27.34765
G1 X28.679 Y149.398 E27.35097
G1 X28.497 Y149.002 E27.3733
G1 X28.465 Y148.932 E27.37724
G1 X27.906 Y147.667 E27.44808
G1 X27.876 Y147.596 E27.45202
G1 X27.621 Y146.995 E27.48546
G1 X27.598 Y146.94 E27.48852
G1 X27.112 Y145.757 E27.55403
G1 X27.084 Y145.687 E27.55789
G1 X26.814 Y145.002 E27.5956
G1 X26.789 Y144.938 E27.59912
G1 X26.341 Y143.756 E27.66387
G1 X26.319 Y143.696 E27.66714
G1 X26.078 Y143.036 E27.70313
G1 X26.054 Y142.971 E27.70668
G1 X25.593 Y141.654 E27.77815
G1 X25.57 Y141.586 E27.78182
G1 X25.328 Y140.863 E27.82088
G1 X25.308 Y140.803 E27.82412
G1 X24.944 Y139.67 E27.88507
G1 X24.927 Y139.615 E27.88802
G1 X24.675 Y138.8 E27.93171
G1 X24.654 Y138.73 E27.93546
G1 X24.275 Y137.441 E28.00428
G1 X24.258 Y137.383 E28.00737
G1 X24.038 Y136.601 E28.04898
G1 X24.022 Y136.542 E28.05211
G1 X23.7 Y135.344 E28.11565
G1 X23.685 Y135.286 E28.11872
G1 X23.476 Y134.471 E28.16182
G1 X23.457 Y134.396 E28.16578
G1 X23.131 Y133.042 E28.23711
G1 X23.114 Y132.97 E28.2409
G1 X22.682 Y131.057 E28.34135
G1 X22.667 Y130.985 E28.34512
G1 X22.477 Y130.085 E28.39224
G1 X22.457 Y129.986 E28.39741
G1 X22.343 Y129.389 E28.42854
G1 X22.336 Y129.353 E28.43042
G1 X22.017 Y127.617 E28.52083
G1 X22.011 Y127.583 E28.5226
G1 X21.861 Y126.735 E28.56671
G1 X21.85 Y126.669 E28.57013
G1 X21.741 Y126.003 E28.6047
G1 X21.733 Y125.955 E28.60719
G1 X21.326 Y123.313 E28.74411
G1 X21.313 Y123.222 E28.74882
G1 X21.227 Y122.59 E28.78149
G1 X21.222 Y122.553 E28.7834
G1 X21.025 Y121.024 E28.86237
G1 X21.02 Y120.985 E28.86438
G1 X20.903 Y120.02 E28.91417
G1 X20.897 Y119.97 E28.91675
G1 X20.807 Y119.162 E28.95839
G1 X20.802 Y119.116 E28.96076
G1 X20.624 Y117.377 E29.0503
G1 X20.62 Y117.332 E29.05261
G1 X20.557 Y116.66 E29.08719
G1 X20.553 Y116.614 E29.08955
G1 X20.468 Y115.612 E29.14106
G1 X20.463 Y115.551 E29.14419
G1 X20.328 Y113.7 E29.23925
G1 X20.323 Y113.632 E29.24275
G1 X20.26 Y112.579 E29.29678
G1 X20.258 Y112.528 E29.29939
G1 X20.169 Y110.748 E29.39068
G1 X20.166 Y110.691 E29.3936
G1 X20.123 Y109.591 E29.44999
G1 X20.121 Y109.523 E29.45347
G1 X20.07 Y107.571 E29.55349
G1 X20.068 Y107.492 E29.55754
G1 X20.047 Y105.559 E29.65655
G1 X20.047 Y105.479 E29.66065
G1 X20.054 Y103.88 E29.74255
G1 X20.054 Y103.839 E29.74465
G1 X20.062 Y103.19 E29.7779
G1 X20.063 Y103.145 E29.7802
G1 X20.082 Y102.237 E29.82672
G1 X20.083 Y102.185 E29.82939
G1 X20.137 Y100.432 E29.91922
G1 X20.14 Y100.368 E29.9225
G1 X20.196 Y99.068 E29.98915
G1 X20.199 Y98.996 E29.99284
G1 X20.343 Y96.469 E30.12248
G1 X20.349 Y96.387 E30.12669
G1 X20.408 Y95.576 E30.16834
G1 X20.412 Y95.526 E30.17091
G1 X20.562 Y93.707 E30.2644
G1 X20.566 Y93.659 E30.26687
G1 X20.637 Y92.885 E30.30668
G1 X20.642 Y92.829 E30.30956
G1 X20.717 Y92.098 E30.3472
G1 X20.722 Y92.055 E30.34941
G1 X20.956 Y89.948 E30.458
G1 X20.965 Y89.871 E30.46197
G1 X21.124 Y88.609 E30.52712
G1 X21.134 Y88.536 E30.5309
G1 X21.499 Y85.937 E30.66532
G1 X21.511 Y85.853 E30.66967
G1 X21.587 Y85.369 E30.69477
G1 X21.594 Y85.328 E30.6969
G1 X21.952 Y83.162 E30.80935
G1 X21.967 Y83.078 E30.81372
G1 X22.21 Y81.744 E30.88317
G1 X22.219 Y81.692 E30.88587
G1 X22.532 Y80.067 E30.97063
G1 X22.542 Y80.017 E30.97325
G1 X22.723 Y79.124 E31.01992
G1 X22.735 Y79.068 E31.02285
G1 X22.901 Y78.293 E31.06345
G1 X22.907 Y78.264 E31.06496
G1 X23.226 Y76.814 E31.14101
G1 X23.238 Y76.76 E31.14384
G1 X23.539 Y75.458 E31.21229
G1 X23.557 Y75.383 E31.21624
G1 X23.996 Y73.605 E31.31005
G1 X24.027 Y73.486 E31.31635
G1 X24.39 Y72.151 E31.38721
G1 X24.422 Y72.038 E31.39322
G1 X24.539 Y71.643 E31.41432
G1 X24.554 Y71.592 E31.41705
G1 X24.862 Y70.59 E31.47074
G1 X24.88 Y70.535 E31.4737
G1 X25.258 Y69.352 E31.53732
G1 X25.274 Y69.301 E31.54005
G1 X25.514 Y68.576 E31.57917
G1 X25.538 Y68.505 E31.58301
G1 X25.981 Y67.228 E31.65224
G1 X26.005 Y67.161 E31.65589
G1 X26.26 Y66.457 E31.69424
G1 X26.284 Y66.394 E31.69769
G1 X26.736 Y65.195 E31.76333
G1 X26.761 Y65.13 E31.76689
G1 X27.016 Y64.48 E31.80266
G1 X27.039 Y64.42 E31.80595
G1 X27.533 Y63.205 E31.87313
G1 X27.564 Y63.13 E31.87728
G1 X27.804 Y62.565 E31.90873
G1 X27.834 Y62.497 E31.91253
G1 X28.413 Y61.186 E31.98594
G1 X28.673 Y60.616 E32.01803
G1 X28.707 Y60.542 E32.0222
G1 X29.279 Y59.338 E32.09048
G1 X29.313 Y59.268 E32.09446
G1 X29.506 Y58.877 E32.1168
G1 X29.533 Y58.824 E32.11984
G1 X30.126 Y57.656 E32.18694
G1 X30.16 Y57.589 E32.19079
G1 X30.392 Y57.148 E32.21631
G1 X30.434 Y57.069 E32.22089
G1 X31.34 Y55.416 E32.31744
G1 X31.412 Y55.289 E32.32492
G1 X32.179 Y53.978 E32.40272
G1 X32.221 Y53.908 E32.4069
G1 X32.398 Y53.616 E32.42439
G1 X32.447 Y53.537 E32.42915
G1 X33.418 Y51.998 E32.52236
G1 X33.509 Y51.859 E32.53087
G1 X34.505 Y50.386 E32.62195
G1 X34.597 Y50.254 E32.63019
G1 X35.566 Y48.912 E32.71497
G1 X35.669 Y48.774 E32.72379
G1 X36.794 Y47.32 E32.81796
G1 X36.9 Y47.188 E32.82663
G1 X38.013 Y45.842 E32.91609
G1 X38.136 Y45.698 E32.92579
G1 X39.363 Y44.319 E33.02033
G1 X39.485 Y44.187 E33.02954
G1 X40.673 Y42.941 E33.11772
G1 X40.806 Y42.806 E33.12743
M204 S5000
M205 X15 Y15
G1 F2400 E28.62743
;MESH:visera_mod_v2_3.stl
G0 F3000 X63.442 Y33.838
G0 X65.937 Y32.977
G0 X70.743 Y31.588
G0 X75.149 Y30.561
