; generated by PrusaSlicer 2.2.0+win64 on 2020-03-29 at 12:37:08 UTC

; mio desde asistente

; external perimeters extrusion width = 0.45mm
; perimeters extrusion width = 0.45mm
; infill extrusion width = 0.45mm
; solid infill extrusion width = 0.45mm
; top infill extrusion width = 0.40mm
; first layer extrusion width = 0.42mm

M107
M190 S60 ; set bed temperature and wait for it to be reached
M104 S210 ; set temperature
G28 ; home all axes
G1 Z5 F5000 ; lift nozzle
M109 S210 ; set temperature and wait for it to be reached
G21 ; set units to millimeters
G90 ; use absolute coordinates
M82 ; use absolute distances for extrusion
G92 E0
; Filament gcode
G1 Z0.300 F8400.000
G1 E-4.50000 F2400.00000
G92 E0
G1 X42.796 Y39.397 F8400.000
G1 E4.50000 F2400.00000
G1 F3900.000
G1 X45.964 Y36.092 E4.70306
G1 X47.440 Y34.726 E4.79225
G1 X49.810 Y32.725 E4.92984
G1 X51.294 Y31.587 E5.01279
G1 X53.680 Y29.922 E5.14186
G1 X57.797 Y27.441 E5.35506
G1 X60.047 Y26.272 E5.46753
G1 X62.352 Y25.197 E5.58033
G1 X66.764 Y23.425 E5.79120
G1 X72.062 Y21.720 E6.03808
G1 X74.996 Y20.939 E6.17275
G1 X78.735 Y20.076 E6.34292
G1 X83.073 Y19.235 E6.53894
G1 X88.300 Y18.392 E6.77379
G1 X98.431 Y17.116 E7.22667
G1 X186.234 Y7.969 E11.14227
G1 X187.300 Y7.922 E11.18957
G1 X188.721 Y8.049 E11.25285
G1 X189.869 Y8.354 E11.30554
G1 X190.993 Y8.899 E11.36097
G1 X191.985 Y9.650 E11.41614
G1 X192.822 Y10.595 E11.47212
G1 X193.456 Y11.686 E11.52811
G1 X193.863 Y12.888 E11.58437
G1 X194.024 Y14.140 E11.64036
G1 X194.026 Y185.742 E19.25177
G1 X193.913 Y186.875 E19.30225
G1 X193.600 Y187.970 E19.35274
G1 X193.097 Y188.991 E19.40323
G1 X192.420 Y189.906 E19.45371
G1 X191.855 Y190.467 E19.48905
G1 X191.218 Y190.956 E19.52467
G1 X190.531 Y191.359 E19.56000
G1 X189.792 Y191.674 E19.59562
G1 X189.014 Y191.895 E19.63150
G1 X188.137 Y192.031 E19.67089
G1 X186.383 Y192.045 E19.74866
G1 X101.309 Y183.201 E23.54243
G1 X92.463 Y182.175 E23.93744
G1 X84.101 Y180.944 E24.31235
G1 X77.174 Y179.581 E24.62547
G1 X72.070 Y178.282 E24.85909
G1 X66.758 Y176.573 E25.10659
G1 X62.913 Y175.051 E25.29003
G1 X58.660 Y173.020 E25.49903
G1 X54.976 Y170.912 E25.68729
G1 X51.210 Y168.351 E25.88932
G1 X49.751 Y167.227 E25.97101
G1 X47.402 Y165.241 E26.10744
G1 X45.463 Y163.421 E26.22542
G1 X42.746 Y160.547 E26.40081
G1 X40.560 Y157.915 E26.55256
G1 X38.140 Y154.592 E26.73491
G1 X35.956 Y151.144 E26.91593
G1 X33.939 Y147.473 E27.10172
G1 X32.098 Y143.593 E27.29222
G1 X30.684 Y140.151 E27.45725
G1 X29.663 Y137.367 E27.58878
G1 X28.303 Y133.079 E27.78834
G1 X27.132 Y128.646 E27.99167
G1 X26.320 Y124.924 E28.16066
G1 X25.396 Y119.575 E28.40143
G1 X24.825 Y115.334 E28.59125
G1 X24.394 Y111.030 E28.78312
G1 X24.035 Y105.177 E29.04321
G1 X23.942 Y100.501 E29.25065
G1 X24.058 Y94.672 E29.50924
G1 X24.302 Y90.539 E29.69288
G1 X24.792 Y85.396 E29.92204
G1 X25.325 Y81.318 E30.10446
G1 X26.045 Y76.956 E30.30051
G1 X27.119 Y71.695 E30.53869
G1 X28.176 Y67.363 E30.73650
G1 X29.659 Y62.646 E30.95579
G1 X30.682 Y59.853 E31.08771
G1 X32.099 Y56.403 E31.25316
G1 X33.953 Y52.500 E31.44481
G1 X35.955 Y48.858 E31.62918
G1 X38.164 Y45.372 E31.81221
G1 X40.563 Y42.081 E31.99283
G1 X42.757 Y39.443 E32.14504
G1 E27.64504 F2400.00000
G92 E0
G1 X187.462 Y183.406 F8400.000
G1 E4.50000 F2400.00000
G1 F3900.000
G1 X187.461 Y185.493 E4.59258
G1 X187.277 Y185.512 E4.60076
G1 X186.894 Y185.499 E4.61775
G1 X106.568 Y177.156 E8.19975
G1 X101.080 Y176.572 E8.44455
G1 X96.256 Y176.025 E8.65988
G1 X93.313 Y175.665 E8.79139
G1 X90.808 Y175.332 E8.90351
G1 X86.747 Y174.729 E9.08560
G1 X82.666 Y174.017 E9.26934
G1 X80.627 Y173.613 E9.36154
G1 X78.096 Y173.057 E9.47645
G1 X76.073 Y172.564 E9.56885
G1 X73.346 Y171.816 E9.69425
G1 X71.133 Y171.134 E9.79698
G1 X68.946 Y170.383 E9.89955
G1 X66.791 Y169.555 E10.00195
G1 X65.033 Y168.810 E10.08660
G1 X64.214 Y168.442 E10.12646
G1 X62.949 Y167.838 E10.18862
G1 X60.906 Y166.776 E10.29076
G1 X59.686 Y166.087 E10.35288
G1 X57.722 Y164.879 E10.45516
G1 X56.422 Y164.011 E10.52449
G1 X55.143 Y163.094 E10.59431
G1 X54.304 Y162.450 E10.64123
G1 X52.681 Y161.135 E10.73387
G1 X51.384 Y159.991 E10.81057
G1 X50.121 Y158.794 E10.88778
G1 X48.892 Y157.542 E10.96556
G1 X48.049 Y156.631 E11.02063
G1 X46.882 Y155.289 E11.09952
G1 X45.751 Y153.895 E11.17911
G1 X44.659 Y152.450 E11.25950
G1 X43.604 Y150.952 E11.34074
G1 X42.587 Y149.404 E11.42288
G1 X41.610 Y147.806 E11.50598
G1 X40.672 Y146.158 E11.59007
G1 X39.774 Y144.462 E11.67520
G1 X38.913 Y142.712 E11.76169
G1 X38.098 Y140.929 E11.84867
G1 X37.322 Y139.093 E11.93707
G1 X36.586 Y137.213 E12.02662
G1 X36.091 Y135.846 E12.09110
G1 X35.229 Y133.291 E12.21069
G1 X34.614 Y131.268 E12.30451
G1 X34.042 Y129.202 E12.39956
G1 X33.375 Y126.521 E12.52213
G1 X32.888 Y124.302 E12.62286
G1 X32.228 Y120.724 E12.78426
G1 X31.884 Y118.567 E12.88116
G1 X31.664 Y117.043 E12.94944
G1 X31.348 Y114.582 E13.05949
G1 X31.086 Y112.138 E13.16852
G1 X30.939 Y110.521 E13.24054
G1 X30.735 Y107.730 E13.36464
G1 X30.596 Y104.937 E13.48871
G1 X30.521 Y102.140 E13.61281
G1 X30.508 Y100.516 E13.68482
G1 X30.531 Y97.718 E13.80892
G1 X30.619 Y94.922 E13.93300
G1 X30.771 Y92.130 E14.05706
G1 X31.081 Y88.325 E14.22637
G1 X31.318 Y86.110 E14.32517
G1 X31.503 Y84.583 E14.39339
G1 X31.888 Y81.821 E14.51709
G1 X32.242 Y79.630 E14.61552
G1 X32.581 Y77.726 E14.70132
G1 X33.087 Y75.146 E14.81794
G1 X33.750 Y72.151 E14.95399
G1 X34.374 Y69.612 E15.06995
G1 X34.614 Y68.732 E15.11042
G1 X35.229 Y66.708 E15.20424
G1 X35.886 Y64.726 E15.29686
G1 X36.586 Y62.788 E15.38827
G1 X37.551 Y60.362 E15.50408
G1 X38.098 Y59.071 E15.56623
G1 X38.914 Y57.285 E15.65337
G1 X39.774 Y55.538 E15.73971
G1 X40.672 Y53.842 E15.82483
G1 X41.610 Y52.194 E15.90892
G1 X42.587 Y50.596 E15.99202
G1 X43.604 Y49.048 E16.07417
G1 X44.659 Y47.550 E16.15541
G1 X45.751 Y46.105 E16.23580
G1 X46.882 Y44.711 E16.31539
G1 X48.049 Y43.369 E16.39427
G1 X48.892 Y42.458 E16.44934
G1 X50.120 Y41.207 E16.52710
G1 X51.766 Y39.665 E16.62712
G1 X52.681 Y38.864 E16.68104
G1 X53.901 Y37.861 E16.75112
G1 X55.146 Y36.904 E16.82074
G1 X56.422 Y35.989 E16.89042
G1 X57.723 Y35.120 E16.95981
G1 X59.686 Y33.913 E17.06199
G1 X60.467 Y33.471 E17.10183
G1 X62.145 Y32.568 E17.18635
G1 X64.214 Y31.558 E17.28844
G1 X66.325 Y30.635 E17.39066
G1 X67.628 Y30.111 E17.45295
G1 X68.945 Y29.618 E17.51532
G1 X71.132 Y28.866 E17.61791
G1 X73.833 Y28.042 E17.74316
G1 X76.074 Y27.436 E17.84614
G1 X78.096 Y26.943 E17.93846
G1 X80.627 Y26.387 E18.05336
G1 X82.666 Y25.983 E18.14559
G1 X86.746 Y25.271 E18.32929
G1 X89.275 Y24.885 E18.44274
G1 X93.313 Y24.336 E18.62352
G1 X99.161 Y23.641 E18.88471
G1 X106.568 Y22.844 E19.21516
G1 X186.902 Y14.500 E22.79753
G1 X187.461 Y14.498 E22.82228
G1 X187.462 Y16.596 E22.91536
G1 X187.280 Y16.657 E22.92390
G1 X186.869 Y16.739 E22.94247
G1 X127.381 Y23.836 E25.59978
G1 X125.280 Y24.035 E25.69335
G1 X124.187 Y24.162 E25.74216
G1 X120.068 Y24.731 E25.92662
G1 X118.467 Y24.987 E25.99851
G1 X116.494 Y25.360 E26.08759
G1 X114.892 Y25.711 E26.16034
G1 X112.919 Y26.202 E26.25051
G1 X111.314 Y26.647 E26.32437
G1 X109.715 Y27.134 E26.39853
G1 X108.117 Y27.663 E26.47319
G1 X106.156 Y28.368 E26.56563
G1 X104.571 Y28.986 E26.64109
G1 X102.136 Y30.017 E26.75837
G1 X99.370 Y31.317 E26.89393
G1 X97.362 Y32.344 E26.99397
G1 X95.382 Y33.437 E27.09424
G1 X92.754 Y35.007 E27.23006
G1 X90.524 Y36.462 E27.34814
G1 X88.675 Y37.759 E27.44832
G1 X87.608 Y38.549 E27.50723
G1 X86.557 Y39.358 E27.56603
G1 X85.219 Y40.439 E27.64233
G1 X83.516 Y41.894 E27.74170
G1 X82.540 Y42.778 E27.80011
G1 X80.725 Y44.518 E27.91163
G1 X79.289 Y46.003 E28.00326
G1 X77.872 Y47.585 E28.09745
G1 X76.627 Y49.059 E28.18302
G1 X75.365 Y50.662 E28.27352
G1 X74.163 Y52.308 E28.36392
G1 X72.766 Y54.389 E28.47508
G1 X71.694 Y56.122 E28.56548
G1 X70.684 Y57.896 E28.65603
G1 X69.733 Y59.709 E28.74683
G1 X68.644 Y61.993 E28.85906
G1 X67.822 Y63.892 E28.95083
G1 X67.059 Y65.829 E29.04320
G1 X66.449 Y67.519 E29.12286
G1 X65.734 Y69.703 E29.22482
G1 X65.215 Y71.456 E29.30589
G1 X64.736 Y73.237 E29.38769
G1 X64.411 Y74.557 E29.44800
G1 X63.890 Y76.884 E29.55375
G1 X63.522 Y78.751 E29.63816
G1 X63.191 Y80.647 E29.72353
G1 X62.824 Y83.097 E29.83343
G1 X62.634 Y84.526 E29.89734
G1 X62.408 Y86.509 E29.98590
G1 X62.215 Y88.523 E30.07564
G1 X62.018 Y91.123 E30.19127
G1 X61.929 Y92.640 E30.25870
G1 X61.834 Y94.744 E30.35211
G1 X61.760 Y97.458 E30.47253
G1 X61.738 Y100.000 E30.58528
G1 X61.760 Y102.542 E30.69802
G1 X61.834 Y105.256 E30.81845
G1 X61.929 Y107.360 E30.91186
G1 X62.018 Y108.877 E30.97929
G1 X62.215 Y111.477 E31.09492
G1 X62.408 Y113.491 E31.18465
G1 X62.634 Y115.474 E31.27321
G1 X62.824 Y116.903 E31.33713
G1 X63.191 Y119.353 E31.44702
G1 X63.522 Y121.249 E31.53240
G1 X63.890 Y123.116 E31.61680
G1 X64.411 Y125.443 E31.72256
G1 X64.736 Y126.763 E31.78287
G1 X65.215 Y128.544 E31.86466
G1 X65.734 Y130.297 E31.94574
G1 X66.449 Y132.481 E32.04770
G1 X67.059 Y134.171 E32.12736
G1 X67.822 Y136.108 E32.21972
G1 X68.644 Y138.007 E32.31149
G1 X69.733 Y140.291 E32.42372
G1 X70.684 Y142.104 E32.51452
G1 X71.694 Y143.878 E32.60507
G1 X72.766 Y145.611 E32.69547
G1 X73.897 Y147.304 E32.78575
G1 X74.439 Y148.074 E32.82755
G1 X75.366 Y149.338 E32.89705
G1 X76.925 Y151.307 E33.00844
G1 X78.335 Y152.949 E33.10445
G1 X79.591 Y154.313 E33.18668
G1 X81.036 Y155.790 E33.27833
G1 X82.540 Y157.222 E33.37047
G1 X83.516 Y158.106 E33.42886
G1 X85.219 Y159.561 E33.52822
G1 X86.557 Y160.642 E33.60453
G1 X87.608 Y161.451 E33.66333
G1 X88.675 Y162.241 E33.72223
G1 X90.524 Y163.538 E33.82241
G1 X92.754 Y164.993 E33.94050
G1 X95.382 Y166.563 E34.07631
G1 X97.362 Y167.656 E34.17658
G1 X99.370 Y168.683 E34.27663
G1 X102.136 Y169.983 E34.41219
G1 X104.571 Y171.014 E34.52947
G1 X106.156 Y171.632 E34.60493
G1 X108.117 Y172.337 E34.69737
G1 X109.715 Y172.866 E34.77203
G1 X111.314 Y173.353 E34.84619
G1 X112.919 Y173.798 E34.92005
G1 X114.892 Y174.289 E35.01022
G1 X116.494 Y174.640 E35.08297
G1 X118.467 Y175.013 E35.17205
G1 X120.068 Y175.269 E35.24393
G1 X124.187 Y175.838 E35.42839
G1 X125.280 Y175.965 E35.47720
G1 X127.381 Y176.164 E35.57078
G1 X186.870 Y183.261 E38.22813
G1 X187.213 Y183.327 E38.24364
G1 X187.405 Y183.388 E38.25257
G1 X187.235 Y183.735 F8400.000
G1 X187.106 Y183.668
G1 F3900.000
G1 X187.105 Y185.150 E38.31831
G1 X186.919 Y185.144 E38.32659
G1 X136.057 Y179.861 E40.59470
G1 X136.143 Y177.961 E40.67910
G1 X105.266 Y174.753 E42.05600
G1 X100.035 Y174.194 E42.28936
G1 X96.840 Y173.829 E42.43199
G1 X93.770 Y173.451 E42.56918
G1 X90.674 Y173.035 E42.70774
G1 X87.396 Y172.546 E42.85475
G1 X83.935 Y171.958 E43.01047
G1 X81.285 Y171.445 E43.13021
G1 X78.669 Y170.872 E43.24899
G1 X76.174 Y170.256 E43.36296
G1 X73.706 Y169.567 E43.47662
G1 X72.325 Y169.144 E43.54069
G1 X71.059 Y168.730 E43.59976
G1 X69.805 Y168.291 E43.65869
G1 X68.666 Y167.868 E43.71258
G1 X67.436 Y167.382 E43.77121
G1 X66.222 Y166.871 E43.82966
G1 X65.024 Y166.331 E43.88795
G1 X63.842 Y165.763 E43.94611
G1 X62.584 Y165.116 E44.00885
G1 X61.346 Y164.436 E44.07151
G1 X60.053 Y163.675 E44.13806
G1 X58.857 Y162.921 E44.20074
G1 X57.898 Y162.280 E44.25191
G1 X57.026 Y161.666 E44.29924
G1 X56.024 Y160.923 E44.35455
G1 X55.179 Y160.264 E44.40209
G1 X54.279 Y159.524 E44.45375
G1 X53.395 Y158.759 E44.50559
G1 X52.528 Y157.969 E44.55765
G1 X51.612 Y157.089 E44.61401
G1 X50.835 Y156.305 E44.66295
G1 X50.011 Y155.431 E44.71623
G1 X49.204 Y154.530 E44.76985
G1 X48.416 Y153.605 E44.82375
G1 X47.170 Y152.041 E44.91248
G1 X46.031 Y150.492 E44.99774
G1 X44.935 Y148.880 E45.08421
G1 X43.881 Y147.204 E45.17201
G1 X43.285 Y146.195 E45.22401
G1 X42.652 Y145.070 E45.28124
G1 X41.583 Y143.036 E45.38318
G1 X40.969 Y141.778 E45.44528
G1 X40.375 Y140.491 E45.50813
G1 X39.846 Y139.283 E45.56663
G1 X39.251 Y137.841 E45.63583
G1 X38.761 Y136.586 E45.69557
G1 X38.252 Y135.201 E45.76105
G1 X37.727 Y133.678 E45.83247
G1 X37.298 Y132.357 E45.89410
G1 X36.872 Y130.953 E45.95918
G1 X36.393 Y129.266 E46.03696
G1 X36.012 Y127.817 E46.10341
G1 X35.620 Y126.212 E46.17669
G1 X35.224 Y124.444 E46.25703
G1 X34.911 Y122.930 E46.32565
G1 X34.594 Y121.253 E46.40133
G1 X34.304 Y119.553 E46.47783
G1 X34.038 Y117.830 E46.55516
G1 X33.817 Y116.231 E46.62675
G1 X33.601 Y114.465 E46.70567
G1 X33.410 Y112.677 E46.78543
G1 X33.246 Y110.867 E46.86604
G1 X33.107 Y109.035 E46.94750
G1 X33.004 Y107.338 E47.02291
G1 X32.908 Y105.310 E47.11297
G1 X32.832 Y102.674 E47.22994
G1 X32.806 Y100.000 E47.34855
G1 X32.832 Y97.326 E47.46717
G1 X32.908 Y94.690 E47.58414
G1 X33.004 Y92.662 E47.67420
G1 X33.107 Y90.965 E47.74961
G1 X33.246 Y89.133 E47.83107
G1 X33.410 Y87.323 E47.91168
G1 X33.601 Y85.535 E47.99144
G1 X33.798 Y83.916 E48.06379
G1 X34.038 Y82.171 E48.14194
G1 X34.328 Y80.305 E48.22569
G1 X34.594 Y78.747 E48.29578
G1 X34.911 Y77.071 E48.37146
G1 X35.253 Y75.418 E48.44633
G1 X35.620 Y73.788 E48.52041
G1 X35.978 Y72.317 E48.58759
G1 X36.393 Y70.734 E48.66016
G1 X36.872 Y69.047 E48.73793
G1 X37.298 Y67.643 E48.80301
G1 X37.764 Y66.210 E48.86987
G1 X38.251 Y64.800 E48.93605
G1 X38.761 Y63.414 E49.00154
G1 X39.251 Y62.159 E49.06128
G1 X39.846 Y60.717 E49.13048
G1 X40.375 Y59.509 E49.18898
G1 X40.969 Y58.222 E49.25182
G1 X41.633 Y56.867 E49.31876
G1 X42.702 Y54.837 E49.42053
G1 X43.828 Y52.884 E49.52054
G1 X44.935 Y51.120 E49.61291
G1 X46.031 Y49.508 E49.69936
G1 X47.170 Y47.959 E49.78462
G1 X48.416 Y46.395 E49.87335
G1 X49.204 Y45.470 E49.92726
G1 X50.011 Y44.569 E49.98088
G1 X50.772 Y43.761 E50.03011
G1 X51.676 Y42.847 E50.08713
G1 X52.528 Y42.031 E50.13945
G1 X53.329 Y41.300 E50.18753
G1 X54.280 Y40.476 E50.24337
G1 X55.179 Y39.736 E50.29501
G1 X56.024 Y39.076 E50.34256
G1 X56.954 Y38.386 E50.39394
G1 X57.899 Y37.720 E50.44521
G1 X58.857 Y37.079 E50.49637
G1 X60.053 Y36.325 E50.55905
G1 X61.346 Y35.564 E50.62560
G1 X62.584 Y34.883 E50.68825
G1 X63.842 Y34.237 E50.75100
G1 X65.024 Y33.669 E50.80916
G1 X66.222 Y33.129 E50.86746
G1 X67.335 Y32.659 E50.92103
G1 X68.666 Y32.132 E50.98453
G1 X69.805 Y31.709 E51.03842
G1 X71.059 Y31.270 E51.09735
G1 X72.325 Y30.855 E51.15643
G1 X73.599 Y30.464 E51.21557
G1 X76.174 Y29.744 E51.33413
G1 X78.887 Y29.080 E51.45802
G1 X81.285 Y28.555 E51.56690
G1 X83.935 Y28.042 E51.68664
G1 X87.396 Y27.454 E51.84236
G1 X90.674 Y26.965 E51.98937
G1 X93.770 Y26.549 E52.12792
G1 X96.840 Y26.171 E52.26508
G1 X102.592 Y25.528 E52.52181
G1 X136.143 Y22.039 E54.01801
G1 X136.057 Y20.139 E54.10240
G1 X186.922 Y14.856 E56.37065
G1 X187.105 Y14.855 E56.37879
G1 X187.106 Y16.329 E56.44418
G1 X186.813 Y16.387 E56.45743
G1 X127.343 Y23.483 E59.11394
G1 X125.243 Y23.681 E59.20749
G1 X124.142 Y23.809 E59.25664
G1 X120.015 Y24.379 E59.44144
G1 X118.406 Y24.637 E59.51372
G1 X116.423 Y25.011 E59.60325
G1 X114.811 Y25.365 E59.67644
G1 X112.828 Y25.858 E59.76705
G1 X111.215 Y26.306 E59.84132
G1 X109.607 Y26.795 E59.91586
G1 X108.001 Y27.327 E59.99092
G1 X106.031 Y28.035 E60.08376
G1 X104.437 Y28.656 E60.15966
G1 X101.991 Y29.692 E60.27748
G1 X99.213 Y30.998 E60.41361
G1 X97.195 Y32.030 E60.51416
G1 X95.205 Y33.128 E60.61495
G1 X92.566 Y34.705 E60.75135
G1 X90.325 Y36.167 E60.87001
G1 X88.467 Y37.470 E60.97066
G1 X87.393 Y38.265 E61.02991
G1 X86.337 Y39.078 E61.08905
G1 X84.992 Y40.165 E61.16575
G1 X83.281 Y41.627 E61.26556
G1 X82.297 Y42.518 E61.32442
G1 X80.474 Y44.266 E61.43647
G1 X79.028 Y45.761 E61.52870
G1 X77.604 Y47.352 E61.62342
G1 X76.352 Y48.834 E61.70949
G1 X75.082 Y50.447 E61.80054
G1 X73.871 Y52.103 E61.89154
G1 X72.467 Y54.196 E62.00331
G1 X71.389 Y55.941 E62.09429
G1 X70.371 Y57.725 E62.18540
G1 X69.415 Y59.550 E62.27678
G1 X68.320 Y61.846 E62.38959
