;FLAVOR:Marlin
;TIME:3195
;Filament used: 4.5367m
;Layer height: 0.3
;MINX:25.31
;MINY:9.024
;MINZ:0.2
;MAXX:184.69
;MAXY:180.976
;MAXZ:9.8
;Generated with Cura_SteamEngine 4.3.0
M104 S200
M105
M109 S200
M82 ;absolute extrusion mode
; -- START GCODE --
G21                     ;set units to millimetres
G90                     ;set to absolute positioning
M106 S0                 ;set fan speed to zero (turned off)
G28 X0 Y0               ;move to the X/Y origin (Home)
G28 Z0                  ;move to the Z origin (Home)
G1 Z15.0 F1200          ;move Z to position 15.0 mm
G92 E0                  ;zero the extruded length
G1 E20 F200             ;extrude 20mm of feed stock
G92 E0                  ;zero the extruded length again
G1 F7200                ;set feedrate to 120 mm/s
; -- end of START GCODE --
G92 E0
G92 E0
G1 F1500 E-6.5
;LAYER_COUNT:33
;LAYER:0
M107
;MESH:Visera plana con ventilacion v1-1 (1)_despues_CHN.stl
G0 F3600 X72.024 Y31.891 Z0.2
;TYPE:WALL-INNER
G1 F1500 E0
G1 F1800 X72.441 Y32.449 E0.02317
G1 X72.946 Y32.927 E0.0463
G1 X73.528 Y33.31 E0.06947
G1 X74.167 Y33.585 E0.09261
G1 X74.845 Y33.746 E0.11578
G1 X75.54 Y33.785 E0.13894
G1 X76.23 Y33.705 E0.16204
G1 X76.896 Y33.505 E0.18517
G1 X77.518 Y33.195 E0.20828
G1 X78.076 Y32.778 E0.23145
G1 X78.555 Y32.272 E0.25463
G1 X78.936 Y31.69 E0.27776
G1 X79.212 Y31.053 E0.30085
G1 X79.373 Y30.374 E0.32406
G1 X79.412 Y29.679 E0.34721
G1 X79.332 Y28.989 E0.37032
G1 X79.132 Y28.321 E0.39351
G1 X78.82 Y27.701 E0.4166
G1 X78.406 Y27.144 E0.43968
G1 X77.899 Y26.664 E0.4629
G1 X77.317 Y26.283 E0.48604
G1 X76.68 Y26.007 E0.50913
G1 X76.001 Y25.846 E0.53234
G1 X75.306 Y25.807 E0.55549
G1 X74.616 Y25.887 E0.57859
G1 X73.948 Y26.087 E0.60178
G1 X73.328 Y26.399 E0.62487
G1 X72.771 Y26.814 E0.64797
G1 X72.292 Y27.319 E0.67112
G1 X71.909 Y27.901 E0.69429
G1 X71.634 Y28.54 E0.71743
G1 X71.473 Y29.218 E0.74061
G1 X71.434 Y29.913 E0.76376
G1 X71.514 Y30.603 E0.78686
G1 X71.714 Y31.269 E0.80999
G1 X72.024 Y31.891 E0.83311
G0 F3600 X49.65 Y69.326
G1 F1800 X49.028 Y69.64 E0.85628
G1 X48.47 Y70.055 E0.87941
G1 X47.992 Y70.559 E0.90252
G1 X47.609 Y71.141 E0.92569
G1 X47.333 Y71.78 E0.94884
G1 X47.173 Y72.458 E0.97201
G1 X47.133 Y73.153 E0.99516
G1 X47.214 Y73.843 E1.01827
G1 X47.412 Y74.509 E1.04138
G1 X47.726 Y75.131 E1.06455
G1 X48.141 Y75.689 E1.08768
G1 X48.646 Y76.167 E1.11081
G1 X49.228 Y76.55 E1.13398
G1 X49.867 Y76.826 E1.15713
G1 X50.545 Y76.986 E1.1803
G1 X51.24 Y77.026 E1.20346
G1 X51.93 Y76.945 E1.22657
G1 X52.596 Y76.747 E1.24967
G1 X53.218 Y76.434 E1.27283
G1 X53.778 Y76.018 E1.29604
G1 X54.253 Y75.512 E1.31912
G1 X54.636 Y74.932 E1.34224
G1 X54.912 Y74.292 E1.36542
G1 X55.072 Y73.614 E1.38859
G1 X55.112 Y72.919 E1.41174
G1 X55.031 Y72.229 E1.43485
G1 X54.833 Y71.563 E1.45796
G1 X54.52 Y70.941 E1.48112
G1 X54.104 Y70.381 E1.50432
G1 X53.598 Y69.906 E1.5274
G1 X53.018 Y69.523 E1.55052
G1 X52.379 Y69.247 E1.57367
G1 X51.701 Y69.087 E1.59684
G1 X51.006 Y69.047 E1.62
G1 X50.316 Y69.128 E1.6431
G1 X49.65 Y69.326 E1.66621
G0 F3600 X48.276 Y70.786
G0 X47.677 Y71.894
G0 X47.512 Y72.868
G0 X49.65 Y113.253
G1 F1800 X49.028 Y113.567 E1.68939
G1 X48.47 Y113.982 E1.71252
G1 X47.992 Y114.487 E1.73564
G1 X47.609 Y115.069 E1.75882
G1 X47.333 Y115.708 E1.78197
G1 X47.173 Y116.386 E1.80514
G1 X47.133 Y117.081 E1.82829
G1 X47.214 Y117.771 E1.8514
G1 X47.412 Y118.437 E1.87451
G1 X47.725 Y119.059 E1.89767
G1 X48.141 Y119.619 E1.92087
G1 X48.647 Y120.094 E1.94395
G1 X49.227 Y120.477 E1.96707
G1 X49.867 Y120.753 E1.99025
G1 X50.545 Y120.913 E2.01342
G1 X51.24 Y120.953 E2.03658
G1 X51.93 Y120.872 E2.05968
G1 X52.596 Y120.674 E2.08279
G1 X53.218 Y120.361 E2.10595
G1 X53.778 Y119.945 E2.12915
G1 X54.253 Y119.439 E2.15224
G1 X54.636 Y118.859 E2.17536
G1 X54.912 Y118.22 E2.19851
G1 X55.072 Y117.542 E2.22168
G1 X55.112 Y116.847 E2.24483
G1 X55.031 Y116.157 E2.26794
G1 X54.833 Y115.491 E2.29105
G1 X54.519 Y114.869 E2.31422
G1 X54.104 Y114.311 E2.33735
G1 X53.6 Y113.833 E2.36045
G1 X53.018 Y113.45 E2.38363
G1 X52.379 Y113.174 E2.40678
G1 X51.701 Y113.014 E2.42995
G1 X51.006 Y112.974 E2.4531
G1 X50.316 Y113.055 E2.47621
G1 X49.65 Y113.253 E2.49932
G0 F3600 X51.648 Y113.372
G0 X52.848 Y113.768
G0 X53.836 Y114.556
G0 X54.497 Y115.626
G0 X54.75 Y116.858
G0 X54.568 Y118.106
G0 X53.969 Y119.213
G0 X67.671 Y141.265
G0 X71.334 Y146.837
G1 F1800 X71.703 Y147.264 E2.51809
G1 X72.663 Y148.384 E2.56715
G1 X73.709 Y149.535 E2.61888
G1 X74.07 Y149.914 E2.63629
G1 X75.135 Y151.012 E2.68717
G1 X75.511 Y151.385 E2.70478
G1 X77.001 Y152.802 E2.77317
G1 X77.649 Y153.39 E2.80227
G1 X78.651 Y154.272 E2.84667
G1 X79.673 Y155.137 E2.8912
G1 X80.715 Y155.984 E2.93587
G1 X81.774 Y156.813 E2.9806
G1 X82.852 Y157.619 E3.02537
G1 X83.945 Y158.408 E3.0702
G1 X85.056 Y159.179 E3.11518
G1 X86.914 Y160.393 E3.189
G1 X87.716 Y160.901 E3.22057
G1 X89.22 Y161.802 E3.27889
G1 X90.039 Y162.279 E3.31041
G1 X91.571 Y163.128 E3.36867
G1 X92.406 Y163.571 E3.40011
G1 X93.962 Y164.365 E3.45821
G1 X94.809 Y164.777 E3.48953
G1 X96.4 Y165.519 E3.54792
G1 X97.257 Y165.897 E3.57908
G1 X98.864 Y166.581 E3.63717
G1 X100.442 Y167.206 E3.69362
G1 X101.31 Y167.531 E3.72444
G1 X102.467 Y167.951 E3.76538
G1 X104.06 Y168.487 E3.82129
G1 X105.654 Y168.981 E3.87679
G1 X106.529 Y169.235 E3.90709
G1 X107.696 Y169.559 E3.94738
G1 X108.529 Y169.769 E3.97595
G1 X109.297 Y169.961 E4.00228
G1 X110.894 Y170.321 E4.05673
G1 X111.855 Y170.516 E4.08934
G1 X110.884 Y170.416 E4.09317
G1 X109.268 Y170.247 E4.1189
G1 X108.481 Y170.166 E4.14151
G1 X97.759 Y169.05 E4.50005
G1 X95.005 Y168.75 E4.59219
G1 X91.917 Y168.398 E4.69556
G1 X88.78 Y168.012 E4.80069
G1 X85.641 Y167.591 E4.90603
G1 X82.456 Y167.112 E5.01315
G1 X78.988 Y166.526 E5.13013
G1 X76.361 Y166.015 E5.21915
G1 X73.791 Y165.453 E5.30664
G1 X71.243 Y164.823 E5.39394
G1 X68.707 Y164.113 E5.48153
G1 X67.45 Y163.726 E5.52528
G1 X66.224 Y163.325 E5.56818
G1 X64.974 Y162.888 E5.61222
G1 X63.759 Y162.437 E5.65533
G1 X62.557 Y161.96 E5.69834
G1 X61.367 Y161.457 E5.74131
G1 X60.196 Y160.93 E5.78402
G1 X59.035 Y160.372 E5.82686
G1 X57.772 Y159.723 E5.87409
G1 X56.549 Y159.05 E5.92052
G1 X55.305 Y158.317 E5.96855
G1 X54.125 Y157.574 E6.01493
G1 X53.166 Y156.934 E6.05327
G1 X52.23 Y156.276 E6.09133
G1 X51.319 Y155.601 E6.12904
G1 X50.427 Y154.903 E6.16671
G1 X49.529 Y154.164 E6.20539
G1 X48.659 Y153.41 E6.24368
G1 X47.814 Y152.639 E6.28173
G1 X46.961 Y151.82 E6.32106
G1 X46.131 Y150.983 E6.36026
G1 X45.326 Y150.127 E6.39935
G1 X44.522 Y149.23 E6.43941
G1 X43.743 Y148.315 E6.47938
G1 X42.547 Y146.816 E6.54316
G1 X41.407 Y145.268 E6.6071
G1 X40.281 Y143.612 E6.67371
G1 X39.22 Y141.92 E6.74013
G1 X38.639 Y140.937 E6.77811
G1 X38.077 Y139.939 E6.81621
G1 X37.522 Y138.908 E6.85515
G1 X36.989 Y137.87 E6.89396
G1 X36.377 Y136.62 E6.94025
G1 X35.79 Y135.352 E6.98672
G1 X35.227 Y134.066 E7.03342
G1 X34.68 Y132.739 E7.08116
G1 X34.157 Y131.398 E7.12903
G1 X33.654 Y130.026 E7.17763
G1 X33.173 Y128.64 E7.22643
G1 X32.713 Y127.217 E7.27617
G1 X32.255 Y125.712 E7.32849
G1 X31.822 Y124.182 E7.38138
G1 X31.416 Y122.634 E7.43461
G1 X31.03 Y121.05 E7.48883
G1 X30.673 Y119.462 E7.54297
G1 X30.335 Y117.823 E7.59863
G1 X30.024 Y116.176 E7.65438
G1 X29.738 Y114.506 E7.71073
G1 X29.476 Y112.811 E7.76777
G1 X29.239 Y111.098 E7.82529
G1 X29.028 Y109.358 E7.88359
G1 X28.842 Y107.598 E7.94245
G1 X28.681 Y105.83 E8.0015
G1 X28.543 Y104.019 E8.06191
G1 X28.432 Y102.206 E8.12232
G1 X28.348 Y100.352 E8.18405
G1 X28.269 Y97.688 E8.27269
G1 X28.242 Y95.01 E8.36177
G1 X28.269 Y92.312 E8.45151
G1 X28.348 Y89.649 E8.54012
G1 X28.434 Y87.795 E8.60185
G1 X28.544 Y85.981 E8.66229
G1 X28.681 Y84.17 E8.7227
G1 X28.84 Y82.402 E8.78174
G1 X29.028 Y80.642 E8.84061
G1 X29.24 Y78.901 E8.89895
G1 X29.475 Y77.19 E8.95639
G1 X29.738 Y75.494 E9.01347
G1 X30.024 Y73.824 E9.06982
G1 X30.335 Y72.177 E9.12557
G1 X30.674 Y70.538 E9.18124
G1 X31.028 Y68.95 E9.23535
G1 X31.416 Y67.366 E9.28959
G1 X31.822 Y65.818 E9.34282
G1 X32.255 Y64.288 E9.39571
G1 X32.715 Y62.776 E9.44827
G1 X33.173 Y61.36 E9.49777
G1 X33.654 Y59.974 E9.54657
G1 X34.157 Y58.602 E9.59517
G1 X34.68 Y57.261 E9.64305
G1 X35.225 Y55.941 E9.69054
G1 X35.797 Y54.632 E9.73806
G1 X36.376 Y53.38 E9.78394
G1 X36.989 Y52.13 E9.83024
G1 X37.522 Y51.092 E9.86905
G1 X38.077 Y50.061 E9.90799
G1 X38.639 Y49.063 E9.94609
G1 X39.219 Y48.08 E9.98405
G1 X40.281 Y46.388 E10.05049
G1 X41.406 Y44.732 E10.11708
G1 X42.547 Y43.184 E10.18104
G1 X43.743 Y41.685 E10.24482
G1 X44.522 Y40.77 E10.28479
G1 X45.326 Y39.873 E10.32486
G1 X46.131 Y39.017 E10.36394
G1 X46.961 Y38.18 E10.40314
G1 X47.814 Y37.361 E10.44248
G1 X48.659 Y36.59 E10.48052
G1 X49.529 Y35.836 E10.51881
G1 X50.427 Y35.097 E10.55749
G1 X51.321 Y34.398 E10.59524
G1 X52.23 Y33.724 E10.63288
G1 X53.166 Y33.066 E10.67093
G1 X54.125 Y32.426 E10.70928
G1 X55.305 Y31.682 E10.75567
G1 X56.549 Y30.95 E10.80368
G1 X57.772 Y30.277 E10.85011
G1 X59.035 Y29.629 E10.89732
G1 X60.196 Y29.069 E10.9402
G1 X61.367 Y28.543 E10.98289
G1 X62.557 Y28.04 E11.02586
G1 X63.759 Y27.563 E11.06887
G1 X64.974 Y27.112 E11.11198
G1 X66.224 Y26.676 E11.15601
G1 X67.457 Y26.271 E11.19918
G1 X68.707 Y25.888 E11.24266
G1 X71.244 Y25.177 E11.33029
G1 X73.791 Y24.547 E11.41756
G1 X76.361 Y23.985 E11.50506
G1 X78.988 Y23.476 E11.59406
G1 X82.456 Y22.886 E11.71106
G1 X85.641 Y22.411 E11.81817
G1 X88.78 Y21.987 E11.92352
G1 X91.917 Y21.602 E12.02864
G1 X95.005 Y21.248 E12.13202
G1 X97.76 Y20.95 E12.22418
G1 X101.848 Y20.521 E12.3609
G1 X108.485 Y19.832 E12.58283
G1 X109.709 Y19.706 E12.62376
G1 X110.887 Y19.583 E12.66315
G1 X111.774 Y19.49 E12.69281
G1 X111.863 Y19.48 E12.69579
G1 X111.774 Y19.497 E12.69582
G1 X110.897 Y19.678 E12.69969
G1 X109.733 Y19.934 E12.71584
G1 X108.538 Y20.228 E12.74804
G1 X108.132 Y20.329 E12.76196
G1 X106.533 Y20.763 E12.81706
G1 X105.658 Y21.017 E12.84737
G1 X104.495 Y21.373 E12.88782
G1 X102.9 Y21.901 E12.9437
G1 X101.313 Y22.467 E12.99974
G1 X100.446 Y22.792 E13.03054
G1 X99.292 Y23.243 E13.07175
G1 X97.261 Y24.101 E13.14508
G1 X96.401 Y24.48 E13.17634
G1 X94.81 Y25.222 E13.23473
G1 X93.963 Y25.634 E13.26605
G1 X92.407 Y26.428 E13.32416
G1 X91.572 Y26.871 E13.35559
G1 X90.04 Y27.72 E13.41385
G1 X89.221 Y28.197 E13.44537
G1 X87.717 Y29.098 E13.50369
G1 X86.916 Y29.604 E13.5352
G1 X85.447 Y30.559 E13.59347
G1 X84.331 Y31.321 E13.63842
G1 X83.232 Y32.101 E13.68324
G1 X82.149 Y32.903 E13.72807
G1 X81.082 Y33.723 E13.77282
G1 X80.034 Y34.562 E13.81747
G1 X79.004 Y35.421 E13.86208
G1 X77.993 Y36.299 E13.90662
G1 X77.002 Y37.195 E13.95105
G1 X76.622 Y37.555 E13.96846
G1 X75.509 Y38.618 E14.01965
G1 X75.135 Y38.989 E14.03717
G1 X73.712 Y40.462 E14.10529
G1 X72.74 Y41.53 E14.15333
G1 X72.298 Y42.039 E14.17575
G1 X71.333 Y43.166 E14.22509
G1 X70.976 Y43.605 E14.24391
G1 X70.061 Y44.759 E14.2929
G1 X69.716 Y45.208 E14.31173
G1 X68.518 Y46.85 E14.37933
G1 X68.2 Y47.315 E14.39807
G1 X67.373 Y48.535 E14.44709
G1 X67.068 Y49.01 E14.46587
G1 X66.289 Y50.26 E14.51486
G1 X65.997 Y50.745 E14.53368
G1 X64.99 Y52.515 E14.60142
G1 X64.725 Y53.014 E14.62021
G1 X64.039 Y54.326 E14.66945
G1 X63.788 Y54.836 E14.68836
G1 X63.148 Y56.176 E14.73775
G1 X62.91 Y56.695 E14.75674
G1 X62.092 Y58.588 E14.82533
G1 X61.879 Y59.121 E14.84442
G1 X61.328 Y60.523 E14.89452
G1 X61.13 Y61.063 E14.91365
G1 X60.712 Y62.224 E14.95469
G1 X60.526 Y62.774 E14.974
G1 X60.14 Y63.954 E15.01529
G1 X59.966 Y64.51 E15.03467
G1 X59.605 Y65.712 E15.07641
G1 X59.444 Y66.275 E15.09589
G1 X59.112 Y67.495 E15.13794
G1 X58.961 Y68.069 E15.15768
G1 X58.518 Y69.887 E15.21992
G1 X58.112 Y71.736 E15.28288
G1 X57.744 Y73.613 E15.3465
G1 X57.411 Y75.519 E15.41086
G1 X57.112 Y77.451 E15.47588
G1 X56.85 Y79.413 E15.54171
G1 X56.622 Y81.404 E15.60837
G1 X56.43 Y83.422 E15.67579
G1 X56.376 Y84.07 E15.69742
G1 X56.268 Y85.47 E15.74412
G1 X56.225 Y86.128 E15.76605
G1 X56.106 Y88.215 E15.83558
G1 X56.044 Y89.658 E15.88362
G1 X56.021 Y90.332 E15.90605
G1 X55.968 Y92.475 E15.97735
G1 X55.955 Y93.622 E16.0155
G1 X55.947 Y95 E16.06133
G1 X55.951 Y95.691 E16.08431
G1 X55.968 Y97.524 E16.14528
G1 X56.02 Y99.667 E16.21658
G1 X56.045 Y100.343 E16.23908
G1 X56.105 Y101.786 E16.28712
G1 X56.224 Y103.871 E16.35658
G1 X56.269 Y104.529 E16.37851
G1 X56.375 Y105.93 E16.42524
G1 X56.431 Y106.578 E16.44688
G1 X56.623 Y108.596 E16.5143
G1 X56.851 Y110.586 E16.58092
G1 X57.113 Y112.547 E16.64672
G1 X57.411 Y114.479 E16.71174
G1 X57.514 Y115.085 E16.73218
G1 X57.743 Y116.385 E16.77609
G1 X57.857 Y116.982 E16.7963
G1 X58.111 Y118.262 E16.83971
G1 X58.238 Y118.851 E16.85975
G1 X58.517 Y120.111 E16.90267
G1 X58.655 Y120.691 E16.9225
G1 X58.96 Y121.93 E16.96494
G1 X59.111 Y122.504 E16.98468
G1 X59.443 Y123.724 E17.02673
G1 X59.604 Y124.287 E17.04621
G1 X59.965 Y125.489 E17.08795
G1 X60.139 Y126.046 E17.10736
G1 X60.711 Y127.772 E17.16784
G1 X61.327 Y129.475 E17.22807
G1 X62.09 Y131.408 E17.29719
G1 X62.313 Y131.934 E17.31619
G1 X62.909 Y133.305 E17.36591
G1 X63.147 Y133.824 E17.3849
G1 X63.787 Y135.163 E17.43427
G1 X64.038 Y135.673 E17.45317
G1 X64.987 Y137.48 E17.52106
G1 X65.264 Y137.975 E17.53992
G1 X65.996 Y139.255 E17.58897
G1 X66.288 Y139.739 E17.60777
G1 X67.067 Y140.989 E17.65675
G1 X67.372 Y141.465 E17.67556
G1 X68.515 Y143.147 E17.7432
G1 X68.846 Y143.604 E17.76196
G1 X69.715 Y144.791 E17.81089
G1 X70.06 Y145.24 E17.82973
G1 X70.975 Y146.394 E17.87871
G1 X71.334 Y146.837 E17.89767
G0 F3600 X73.328 Y156.805
G1 F1800 X72.77 Y157.222 E17.92084
G1 X72.292 Y157.727 E17.94397
G1 X71.909 Y158.309 E17.96714
G1 X71.634 Y158.948 E17.99028
G1 X71.473 Y159.626 E18.01346
G1 X71.434 Y160.321 E18.03661
G1 X71.514 Y161.011 E18.05971
G1 X71.714 Y161.677 E18.08284
G1 X72.024 Y162.299 E18.10596
G1 X72.441 Y162.857 E18.12913
G1 X72.947 Y163.336 E18.1523
G1 X73.529 Y163.717 E18.17544
G1 X74.166 Y163.993 E18.19853
G1 X74.845 Y164.154 E18.22174
G1 X75.54 Y164.193 E18.24489
G1 X76.23 Y164.113 E18.26799
G1 X76.898 Y163.913 E18.29118
G1 X77.518 Y163.601 E18.31427
G1 X78.075 Y163.187 E18.33735
G1 X78.555 Y162.68 E18.36057
G1 X78.936 Y162.098 E18.38371
G1 X79.212 Y161.461 E18.4068
G1 X79.373 Y160.782 E18.43001
G1 X79.412 Y160.087 E18.45316
G1 X79.332 Y159.397 E18.47627
G1 X79.132 Y158.729 E18.49946
G1 X78.82 Y158.109 E18.52254
G1 X78.405 Y157.552 E18.54565
G1 X77.9 Y157.073 E18.5688
G1 X77.318 Y156.69 E18.59197
G1 X76.679 Y156.415 E18.61511
G1 X76.001 Y156.254 E18.63828
G1 X75.306 Y156.215 E18.66144
G1 X74.616 Y156.295 E18.68454
G1 X73.95 Y156.495 E18.70767
G1 X73.328 Y156.805 E18.73078
G0 F3600 X75.317 Y156.577
G0 X76.565 Y156.759
G0 X100.574 Y166.871
G0 X104.173 Y168.144
G0 X107.786 Y169.209
G0 X111.842 Y170.147
G0 X115.462 Y170.755
G0 X131.203 Y172.903
G0 X131.558 Y173.273
G1 F1800 X131.567 Y173.059 E18.73791
G1 X131.78 Y173.084 E18.74242
G1 X142.104 Y174.314 E19.08823
G1 X181.65 Y179.034 E20.41287
G1 X181.65 Y179.443 E20.42647
G1 X181.65 Y179.444 E20.42651
G1 X181.65 Y179.664 E20.43382
G1 X181.431 Y179.642 E20.43843
G1 X131.505 Y174.469 E22.10787
G1 X131.558 Y173.273 E22.14769
G0 F3600 X117.394 Y171.028
G0 X113 Y170.37
G0 X109.384 Y169.611
G0 X105.757 Y168.636
G0 X101.434 Y167.193
G0 X97.403 Y165.567
G0 X94.121 Y164.041
G0 X90.219 Y161.966
G0 X87.108 Y160.089
G0 X84.151 Y158.112
G0 X80.938 Y155.7
G0 X77.889 Y153.12
G0 X75.39 Y150.758
G0 X72.932 Y148.144
G0 X70.343 Y145.017
G0 X68.808 Y142.937
G0 X66.666 Y139.658
G0 X65.303 Y137.306
G0 X63.474 Y133.672
G0 X62.422 Y131.269
G0 X61.051 Y127.651
G0 X59.789 Y123.625
G0 X58.915 Y120.206
G0 X58.096 Y116.318
G0 X57.505 Y112.69
G0 X56.982 Y108.556
G0 X56.584 Y103.847
G0 X56.329 Y97.515
G0 X56.329 Y92.483
G0 X56.585 Y86.152
G0 X56.981 Y81.444
G0 X57.508 Y77.309
G0 X58.097 Y73.682
G0 X58.869 Y69.97
G0 X60.009 Y65.649
G0 X61.052 Y62.345
G0 X62.424 Y58.728
G0 X64.112 Y54.995
G0 X65.305 Y52.692
G0 X67.304 Y49.322
G0 X68.812 Y47.06
G0 X71.256 Y43.831
G0 X73.973 Y40.711
G0 X76.871 Y37.817
G0 X79.236 Y35.698
G0 X82.365 Y33.192
G0 X85.645 Y30.861
G0 X89.403 Y28.508
G0 X92.576 Y26.748
G0 X96.548 Y24.809
G0 X100.573 Y23.129
G0 X104.606 Y21.715
G0 X108.22 Y20.678
G0 X111.843 Y19.852
G0 X115.463 Y19.244
G0 X181.649 Y10.545
